;Generated with Cura_SteamEngine 14.03
; automatic settings before start_gcode
G21 ; set units to millimeters
M107 ; fan off
M190 S70 ; wait for bed temperature to be reached
M104 T0 S255 ; start heating extruder 1
T0 ; set the active extruder to 0
; settings from start_gcode
G28
; automatic settings after start_gcode
M109 T0 S255 ; wait for extruder 1 to reach temperature
T0 ; set the active extruder to 0
G90 ; use absolute coordinates
G92 E0 ; reset the expected extruder position
M82 ; use absolute distance for extrusion
;Layer count: 175
;LAYER:0
M107
G0 F12000 X23.25 Y-22.25 Z0.30
G0 X23.25 Y-22.25
;TYPE:SKIRT
G1 Z0.30
G1 F9000 E0.00000
G1 F900 X23.25 Y-22.95 E0.04572
G1 X50.05 Y-22.95 E1.79615
G1 X50.05 Y23.15 E4.80714
G1 X23.25 Y23.15 E6.55757
G1 X23.25 Y22.25 E6.61635
G1 X-23.35 Y22.25 E9.66000
G1 X-23.35 Y23.15 E9.71879
G1 X-50.35 Y23.15 E11.48228
G1 X-50.35 Y-22.95 E14.49327
G1 X-23.35 Y-22.95 E16.25676
G1 X-23.35 Y-22.25 E16.30248
G1 X23.25 Y-22.25 E19.34613
G0 F12000 X23.75 Y-22.45
G1 F900 X49.55 Y-22.45 E21.03125
G1 X49.55 Y22.65 E23.97693
G1 X23.75 Y22.65 E25.66204
G1 X23.75 Y21.75 E25.72082
G1 X-23.85 Y21.75 E28.82979
G1 X-23.85 Y22.65 E28.88857
G1 X-49.85 Y22.65 E30.58675
G1 X-49.85 Y-22.45 E33.53243
G1 X-23.85 Y-22.45 E35.23060
G1 X-23.85 Y-21.75 E35.27632
G1 X23.75 Y-21.75 E38.38529
G1 X23.75 Y-22.45 E38.43101
G0 F12000 X24.25 Y-21.95
G1 F900 X49.05 Y-21.95 E40.05081
G1 X49.05 Y22.15 E42.93118
G1 X24.25 Y22.15 E44.55097
G1 X24.25 Y21.25 E44.60976
G1 X-24.35 Y21.25 E47.78404
G1 X-24.35 Y22.15 E47.84282
G1 X-49.35 Y22.15 E49.47568
G1 X-49.35 Y-21.95 E52.35605
G1 X-24.35 Y-21.95 E53.98891
G1 X-24.35 Y-21.25 E54.03463
G1 X24.25 Y-21.25 E57.20891
G1 X24.25 Y-21.95 E57.25463
G0 F12000 X24.75 Y-21.45
G1 F900 X48.55 Y-21.45 E58.80911
G1 X48.55 Y21.65 E61.62417
G1 X24.75 Y21.65 E63.17865
G1 X24.75 Y20.75 E63.23743
G1 X-24.85 Y20.75 E66.47703
G1 X-24.85 Y21.65 E66.53581
G1 X-48.85 Y21.65 E68.10336
G1 X-48.85 Y-21.45 E70.91841
G1 X-24.85 Y-21.45 E72.48596
G1 X-24.85 Y-20.75 E72.53168
G1 X24.75 Y-20.75 E75.77127
G1 X24.75 Y-21.45 E75.81699
G0 F12000 X25.25 Y-20.95
G1 F900 X48.05 Y-20.95 E77.30616
G1 X48.05 Y21.15 E80.05590
G1 X25.25 Y21.15 E81.54507
G1 X25.25 Y20.25 E81.60385
G1 X-25.35 Y20.25 E84.90876
G1 X-25.35 Y21.15 E84.96755
G1 X-48.35 Y21.15 E86.46978
G1 X-48.35 Y-20.95 E89.21951
G1 X-25.35 Y-20.95 E90.72175
G1 X-25.35 Y-20.25 E90.76747
G1 X25.25 Y-20.25 E94.07238
G1 X25.25 Y-20.95 E94.11810
G1 F9000 E86.11810
G1 Z1.05
G0 F12000 X34.78 Y-8.75
;TYPE:WALL-INNER
G1 Z0.30
G1 F9000 E94.11810
G1 F900 X34.78 Y-6.50 E94.26512
G1 X34.77 Y-3.33 E94.47184
G1 X34.77 Y3.33 E94.90736
G1 X34.78 Y6.49 E95.11375
G1 X34.78 Y8.75 E95.26110
G1 X-34.78 Y8.75 E99.80398
G1 X-34.78 Y6.50 E99.95100
G1 X-34.77 Y3.33 E100.15772
G1 X-34.77 Y-3.33 E100.59324
G1 X-34.78 Y-6.49 E100.79963
G1 X-34.78 Y-8.75 E100.94698
G1 X34.78 Y-8.75 E105.48986
G0 F12000 X28.03 Y-2.55
G1 F900 X27.91 Y-2.66 E105.50013
G1 X27.71 Y-2.85 E105.51853
G1 X27.58 Y-2.94 E105.52879
G1 X27.36 Y-3.10 E105.54661
G1 X26.97 Y-3.31 E105.57537
G1 X26.83 Y-3.37 E105.58565
G1 X26.57 Y-3.47 E105.60362
G1 X26.42 Y-3.51 E105.61390
G1 X26.16 Y-3.59 E105.63160
G1 X25.72 Y-3.65 E105.66046
G1 X25.56 Y-3.65 E105.67072
G1 X25.29 Y-3.66 E105.68849
G1 X25.14 Y-3.65 E105.69859
G1 X24.86 Y-3.63 E105.71649
G1 X24.71 Y-3.59 E105.72688
G1 X24.43 Y-3.53 E105.74545
G1 X24.02 Y-3.40 E105.77371
G1 X23.88 Y-3.33 E105.78370
G1 X23.63 Y-3.21 E105.80172
G1 X23.50 Y-3.13 E105.81202
G1 X23.26 Y-2.98 E105.83043
G1 X23.14 Y-2.88 E105.84045
G1 X22.93 Y-2.71 E105.85847
G1 X22.82 Y-2.59 E105.86872
G1 X22.62 Y-2.39 E105.88743
G1 X22.53 Y-2.27 E105.89681
G1 X22.36 Y-2.05 E105.91534
G1 X22.28 Y-1.91 E105.92579
G1 X22.14 Y-1.67 E105.94420
G1 X22.08 Y-1.53 E105.95371
G1 X21.97 Y-1.28 E105.97196
G1 X21.92 Y-1.13 E105.98220
G1 X21.84 Y-0.86 E106.00072
G1 X21.81 Y-0.71 E106.01039
G1 X21.76 Y-0.43 E106.02912
G1 X21.75 Y-0.28 E106.03873
G1 X21.73 Y-0.01 E106.05667
G1 X21.74 Y0.15 E106.06720
G1 X21.76 Y0.43 E106.08559
G1 X21.79 Y0.59 E106.09573
G1 X21.84 Y0.86 E106.11419
G1 X21.88 Y1.01 E106.12430
G1 X21.96 Y1.27 E106.14207
G1 X22.02 Y1.42 E106.15231
G1 X22.14 Y1.67 E106.17061
G1 X22.22 Y1.80 E106.18053
G1 X22.36 Y2.04 E106.19871
G1 X22.45 Y2.17 E106.20916
G1 X22.63 Y2.40 E106.22789
G1 X22.74 Y2.51 E106.23805
G1 X22.93 Y2.70 E106.25569
G1 X23.05 Y2.80 E106.26590
G1 X23.27 Y2.98 E106.28439
G1 X23.39 Y3.06 E106.29401
G1 X23.63 Y3.21 E106.31227
G1 X23.77 Y3.28 E106.32256
G1 X24.02 Y3.40 E106.34093
G1 X24.44 Y3.54 E106.36960
G1 X24.60 Y3.57 E106.38019
G1 X24.86 Y3.63 E106.39750
G1 X25.01 Y3.64 E106.40779
G1 X25.29 Y3.66 E106.42576
G1 X25.44 Y3.66 E106.43588
G1 X25.72 Y3.65 E106.45424
G1 X26.15 Y3.59 E106.48250
G1 X26.31 Y3.55 E106.49291
G1 X26.57 Y3.47 E106.51102
G1 X26.71 Y3.42 E106.52093
G1 X26.97 Y3.31 E106.53927
G1 X27.35 Y3.10 E106.56760
G1 X27.48 Y3.01 E106.57791
G1 X27.71 Y2.84 E106.59633
G1 X27.82 Y2.74 E106.60622
G1 X28.03 Y2.55 E106.62430
G1 X28.13 Y2.44 E106.63453
G1 X28.31 Y2.22 E106.65296
G1 X28.40 Y2.09 E106.66303
G1 X28.56 Y1.86 E106.68129
G1 X28.63 Y1.73 E106.69114
G1 X28.75 Y1.48 E106.70957
G1 X28.81 Y1.33 E106.71980
G1 X28.91 Y1.07 E106.73805
G1 X29.01 Y0.64 E106.76667
G1 X29.02 Y0.50 E106.77613
G1 X29.06 Y0.22 E106.79449
G1 X29.06 Y-0.21 E106.82258
G1 X29.04 Y-0.37 E106.83289
G1 X29.01 Y-0.65 E106.85139
G1 X28.91 Y-1.07 E106.87947
G1 X28.85 Y-1.21 E106.88962
G1 X28.75 Y-1.47 E106.90774
G1 X28.68 Y-1.61 E106.91806
G1 X28.56 Y-1.86 E106.93643
G1 X28.47 Y-1.99 E106.94656
G1 X28.31 Y-2.23 E106.96503
G1 X28.21 Y-2.35 E106.97522
G1 X28.03 Y-2.55 E106.99296
G0 F12000 X24.82 Y-3.06
G0 X-21.74 Y-0.21
G1 F900 X-21.76 Y-0.37 E107.00327
G1 X-21.79 Y-0.65 E107.02177
G1 X-21.89 Y-1.07 E107.04986
G1 X-21.95 Y-1.21 E107.06000
G1 X-22.04 Y-1.47 E107.07813
G1 X-22.11 Y-1.61 E107.08844
G1 X-22.24 Y-1.86 E107.10681
G1 X-22.33 Y-1.99 E107.11694
G1 X-22.49 Y-2.23 E107.13542
G1 X-22.59 Y-2.35 E107.14560
G1 X-22.77 Y-2.55 E107.16334
G1 X-22.88 Y-2.66 E107.17361
G1 X-23.09 Y-2.85 E107.19201
G1 X-23.22 Y-2.94 E107.20226
G1 X-23.44 Y-3.10 E107.22008
G1 X-23.83 Y-3.31 E107.24885
G1 X-23.97 Y-3.37 E107.25913
G1 X-24.23 Y-3.47 E107.27710
G1 X-24.38 Y-3.51 E107.28738
G1 X-24.64 Y-3.59 E107.30508
G1 X-25.08 Y-3.65 E107.33394
G1 X-25.23 Y-3.65 E107.34419
G1 X-25.51 Y-3.66 E107.36197
G1 X-25.66 Y-3.65 E107.37207
G1 X-25.93 Y-3.63 E107.38997
G1 X-26.09 Y-3.59 E107.40035
G1 X-26.37 Y-3.53 E107.41893
G1 X-26.78 Y-3.40 E107.44719
G1 X-26.92 Y-3.33 E107.45718
G1 X-27.16 Y-3.21 E107.47520
G1 X-27.30 Y-3.13 E107.48550
G1 X-27.54 Y-2.98 E107.50391
G1 X-27.66 Y-2.88 E107.51393
G1 X-27.87 Y-2.71 E107.53195
G1 X-27.98 Y-2.59 E107.54220
G1 X-28.18 Y-2.39 E107.56091
G1 X-28.27 Y-2.27 E107.57029
G1 X-28.44 Y-2.05 E107.58881
G1 X-28.52 Y-1.91 E107.59926
G1 X-28.66 Y-1.67 E107.61768
G1 X-28.72 Y-1.53 E107.62719
G1 X-28.83 Y-1.28 E107.64544
G1 X-28.88 Y-1.13 E107.65568
G1 X-28.96 Y-0.86 E107.67419
G1 X-28.99 Y-0.71 E107.68387
G1 X-29.04 Y-0.43 E107.70260
G1 X-29.05 Y-0.28 E107.71221
G1 X-29.07 Y-0.01 E107.73015
G1 X-29.06 Y0.15 E107.74067
G1 X-29.04 Y0.43 E107.75907
G1 X-29.01 Y0.59 E107.76921
G1 X-28.96 Y0.86 E107.78767
G1 X-28.92 Y1.01 E107.79778
G1 X-28.84 Y1.27 E107.81554
G1 X-28.77 Y1.42 E107.82578
G1 X-28.66 Y1.67 E107.84409
G1 X-28.58 Y1.80 E107.85401
G1 X-28.44 Y2.04 E107.87219
G1 X-28.35 Y2.17 E107.88264
G1 X-28.17 Y2.40 E107.90136
G1 X-28.06 Y2.51 E107.91152
G1 X-27.87 Y2.70 E107.92917
G1 X-27.75 Y2.80 E107.93938
G1 X-27.53 Y2.98 E107.95786
G1 X-27.41 Y3.06 E107.96749
G1 X-27.17 Y3.21 E107.98575
G1 X-27.03 Y3.28 E107.99603
G1 X-26.78 Y3.40 E108.01441
G1 X-26.36 Y3.54 E108.04308
G1 X-26.20 Y3.57 E108.05367
G1 X-25.94 Y3.63 E108.07098
G1 X-25.79 Y3.64 E108.08127
G1 X-25.51 Y3.66 E108.09923
G1 X-25.36 Y3.66 E108.10936
G1 X-25.07 Y3.65 E108.12772
G1 X-24.65 Y3.59 E108.15598
G1 X-24.49 Y3.55 E108.16639
G1 X-24.23 Y3.47 E108.18450
G1 X-24.09 Y3.42 E108.19441
G1 X-23.82 Y3.31 E108.21275
G1 X-23.45 Y3.10 E108.24107
G1 X-23.32 Y3.01 E108.25139
G1 X-23.09 Y2.84 E108.26981
G1 X-22.98 Y2.74 E108.27970
G1 X-22.77 Y2.55 E108.29778
G1 X-22.67 Y2.44 E108.30801
G1 X-22.48 Y2.22 E108.32644
G1 X-22.40 Y2.09 E108.33651
G1 X-22.24 Y1.86 E108.35477
G1 X-22.17 Y1.73 E108.36462
G1 X-22.05 Y1.48 E108.38305
G1 X-21.99 Y1.33 E108.39328
G1 X-21.89 Y1.07 E108.41152
G1 X-21.79 Y0.64 E108.44015
G1 X-21.78 Y0.50 E108.44961
G1 X-21.74 Y0.22 E108.46797
G1 X-21.74 Y-0.21 E108.49606
G0 F12000 X-22.24 Y-0.18
G1 F900 X-22.25 Y-0.31 E108.50434
G1 X-22.29 Y-0.56 E108.52079
G1 X-22.37 Y-0.92 E108.54511
G1 X-22.50 Y-1.27 E108.56947
G1 X-22.56 Y-1.39 E108.57788
G1 X-22.68 Y-1.61 E108.59421
G1 X-22.75 Y-1.71 E108.60240
G1 X-22.89 Y-1.92 E108.61887
G1 X-22.97 Y-2.02 E108.62711
G1 X-23.13 Y-2.20 E108.64304
G1 X-23.22 Y-2.29 E108.65136
G1 X-23.41 Y-2.46 E108.66773
G1 X-23.51 Y-2.53 E108.67601
G1 X-23.71 Y-2.67 E108.69205
G1 X-24.04 Y-2.86 E108.71678
G1 X-24.16 Y-2.90 E108.72481
G1 X-24.39 Y-3.00 E108.74122
G1 X-24.51 Y-3.03 E108.74948
G1 X-24.75 Y-3.10 E108.76548
G1 X-25.12 Y-3.15 E108.79025
G1 X-25.24 Y-3.15 E108.79828
G1 X-25.49 Y-3.16 E108.81449
G1 X-25.62 Y-3.15 E108.82268
G1 X-25.86 Y-3.13 E108.83881
G1 X-25.99 Y-3.10 E108.84714
G1 X-26.23 Y-3.05 E108.86364
G1 X-26.59 Y-2.93 E108.88803
G1 X-26.70 Y-2.88 E108.89615
G1 X-26.93 Y-2.77 E108.91234
G1 X-27.03 Y-2.71 E108.92064
G1 X-27.25 Y-2.57 E108.93706
G1 X-27.53 Y-2.34 E108.96129
G1 X-27.62 Y-2.25 E108.96961
G1 X-27.80 Y-2.06 E108.98614
G1 X-27.87 Y-1.97 E108.99393
G1 X-28.02 Y-1.77 E109.01042
G1 X-28.09 Y-1.66 E109.01876
G1 X-28.22 Y-1.44 E109.03518
G1 X-28.26 Y-1.33 E109.04302
G1 X-28.36 Y-1.10 E109.05931
G1 X-28.40 Y-0.98 E109.06757
G1 X-28.48 Y-0.74 E109.08404
G1 X-28.50 Y-0.62 E109.09193
G1 X-28.54 Y-0.37 E109.10854
G1 X-28.55 Y-0.25 E109.11638
G1 X-28.56 Y-0.01 E109.13255
G1 X-28.56 Y0.12 E109.14092
G1 X-28.54 Y0.37 E109.15734
G1 X-28.52 Y0.50 E109.16557
G1 X-28.48 Y0.75 E109.18197
G1 X-28.44 Y0.86 E109.19011
G1 X-28.37 Y1.10 E109.20616
G1 X-28.32 Y1.22 E109.21441
G1 X-28.21 Y1.44 E109.23078
G1 X-28.15 Y1.55 E109.23880
G1 X-28.03 Y1.76 E109.25508
G1 X-27.95 Y1.87 E109.26352
G1 X-27.79 Y2.07 E109.28010
G1 X-27.70 Y2.16 E109.28832
G1 X-27.54 Y2.33 E109.30421
G1 X-27.24 Y2.57 E109.32891
G1 X-27.13 Y2.64 E109.33725
G1 X-26.93 Y2.77 E109.35310
G1 X-26.81 Y2.83 E109.36143
G1 X-26.59 Y2.93 E109.37776
G1 X-26.23 Y3.05 E109.40244
G1 X-26.11 Y3.08 E109.41017
G1 X-25.87 Y3.13 E109.42660
G1 X-25.74 Y3.14 E109.43493
G1 X-25.50 Y3.16 E109.45106
G1 X-25.37 Y3.16 E109.45923
G1 X-25.12 Y3.15 E109.47563
G1 X-24.75 Y3.10 E109.50005
G1 X-24.63 Y3.06 E109.50839
G1 X-24.39 Y3.00 E109.52466
G1 X-24.27 Y2.95 E109.53267
G1 X-24.04 Y2.86 E109.54902
G1 X-23.71 Y2.68 E109.57349
G1 X-23.61 Y2.60 E109.58182
G1 X-23.40 Y2.46 E109.59825
G1 X-23.31 Y2.37 E109.60629
G1 X-23.13 Y2.20 E109.62252
G1 X-23.05 Y2.11 E109.63076
G1 X-22.88 Y1.92 E109.64711
G1 X-22.81 Y1.81 E109.65529
G1 X-22.67 Y1.61 E109.67162
G1 X-22.62 Y1.50 E109.67965
G1 X-22.50 Y1.27 E109.69607
G1 X-22.37 Y0.92 E109.72064
G1 X-22.29 Y0.56 E109.74522
G1 X-22.27 Y0.44 E109.75304
G1 X-22.24 Y0.19 E109.76943
G1 X-22.24 Y-0.18 E109.79373
G0 F12000 X-23.16 Y-2.17
G0 X-25.13 Y-3.10
G0 X-27.21 Y-2.53
G0 X-35.27 Y-3.33
G1 F900 X-35.28 Y-6.49 E110.00012
G1 X-35.28 Y-9.25 E110.18013
G1 X35.28 Y-9.25 E114.78832
G1 X35.28 Y-6.50 E114.96807
G1 X35.27 Y-3.33 E115.17472
G1 X35.27 Y3.33 E115.61024
G1 X35.28 Y6.49 E115.81663
G1 X35.28 Y9.25 E115.99664
G1 X-35.28 Y9.25 E120.60483
G1 X-35.28 Y6.50 E120.78458
G1 X-35.27 Y3.33 E120.99124
G1 X-35.27 Y-3.33 E121.42675
G0 F12000 X-24.41 Y-2.95
G0 X22.23 Y-0.01
G1 F900 X22.24 Y0.12 E121.43512
G1 X22.26 Y0.37 E121.45155
G1 X22.28 Y0.50 E121.45977
G1 X22.32 Y0.75 E121.47617
G1 X22.36 Y0.86 E121.48431
G1 X22.43 Y1.10 E121.50037
G1 X22.48 Y1.22 E121.50862
G1 X22.59 Y1.44 E121.52499
G1 X22.65 Y1.55 E121.53301
G1 X22.77 Y1.76 E121.54929
G1 X22.85 Y1.87 E121.55772
G1 X23.01 Y2.07 E121.57430
G1 X23.09 Y2.16 E121.58252
G1 X23.26 Y2.33 E121.59841
G1 X23.56 Y2.57 E121.62312
G1 X23.66 Y2.64 E121.63146
G1 X23.87 Y2.77 E121.64731
G1 X23.98 Y2.83 E121.65564
G1 X24.21 Y2.93 E121.67197
G1 X24.57 Y3.05 E121.69665
G1 X24.68 Y3.08 E121.70437
G1 X24.93 Y3.13 E121.72081
G1 X25.06 Y3.14 E121.72914
G1 X25.30 Y3.16 E121.74527
G1 X25.43 Y3.16 E121.75343
G1 X25.68 Y3.15 E121.76984
G1 X26.05 Y3.10 E121.79426
G1 X26.17 Y3.06 E121.80259
G1 X26.41 Y3.00 E121.81887
G1 X26.53 Y2.95 E121.82687
G1 X26.76 Y2.86 E121.84322
G1 X27.09 Y2.68 E121.86769
G1 X27.19 Y2.60 E121.87603
G1 X27.40 Y2.46 E121.89245
G1 X27.49 Y2.37 E121.90050
G1 X27.67 Y2.20 E121.91672
G1 X27.75 Y2.11 E121.92496
G1 X27.91 Y1.92 E121.94131
G1 X27.98 Y1.81 E121.94950
G1 X28.13 Y1.61 E121.96582
G1 X28.18 Y1.50 E121.97385
G1 X28.30 Y1.27 E121.99027
G1 X28.43 Y0.92 E122.01484
G1 X28.51 Y0.56 E122.03943
G1 X28.53 Y0.44 E122.04725
G1 X28.56 Y0.19 E122.06364
G1 X28.56 Y-0.18 E122.08793
G1 X28.54 Y-0.31 E122.09621
G1 X28.51 Y-0.56 E122.11267
G1 X28.43 Y-0.92 E122.13698
G1 X28.30 Y-1.27 E122.16135
G1 X28.24 Y-1.39 E122.16976
G1 X28.12 Y-1.61 E122.18609
G1 X28.05 Y-1.71 E122.19428
G1 X27.91 Y-1.92 E122.21074
G1 X27.83 Y-2.02 E122.21898
G1 X27.67 Y-2.20 E122.23492
G1 X27.58 Y-2.29 E122.24324
G1 X27.39 Y-2.46 E122.25960
G1 X27.29 Y-2.53 E122.26789
G1 X27.09 Y-2.67 E122.28393
G1 X26.76 Y-2.86 E122.30866
G1 X26.64 Y-2.90 E122.31669
G1 X26.41 Y-3.00 E122.33310
G1 X26.29 Y-3.03 E122.34135
G1 X26.05 Y-3.10 E122.35736
G1 X25.68 Y-3.15 E122.38212
G1 X25.56 Y-3.15 E122.39016
G1 X25.31 Y-3.16 E122.40636
G1 X25.18 Y-3.15 E122.41456
G1 X24.94 Y-3.13 E122.43069
G1 X24.81 Y-3.10 E122.43902
G1 X24.56 Y-3.05 E122.45552
G1 X24.21 Y-2.93 E122.47991
G1 X24.10 Y-2.88 E122.48803
G1 X23.87 Y-2.77 E122.50422
G1 X23.77 Y-2.71 E122.51252
G1 X23.55 Y-2.57 E122.52893
G1 X23.27 Y-2.34 E122.55317
G1 X23.18 Y-2.25 E122.56148
G1 X23.00 Y-2.06 E122.57802
G1 X22.93 Y-1.97 E122.58581
G1 X22.77 Y-1.77 E122.60229
G1 X22.71 Y-1.66 E122.61064
G1 X22.58 Y-1.44 E122.62706
G1 X22.54 Y-1.33 E122.63490
G1 X22.43 Y-1.10 E122.65119
G1 X22.40 Y-0.98 E122.65945
G1 X22.32 Y-0.74 E122.67592
G1 X22.30 Y-0.62 E122.68381
G1 X22.26 Y-0.37 E122.70041
G1 X22.25 Y-0.25 E122.70826
G1 X22.23 Y-0.01 E122.72442
G0 F12000 X22.74 Y-0.00
;TYPE:WALL-OUTER
G1 F900 X22.74 Y0.10 E122.73076
G1 X22.75 Y0.32 E122.74516
G1 X22.77 Y0.41 E122.75140
G1 X22.81 Y0.63 E122.76581
G1 X22.90 Y0.93 E122.78637
G1 X22.94 Y1.01 E122.79257
G1 X23.03 Y1.22 E122.80693
G1 X23.19 Y1.49 E122.82754
G1 X23.25 Y1.56 E122.83389
G1 X23.38 Y1.74 E122.84832
G1 X23.45 Y1.81 E122.85451
G1 X23.60 Y1.97 E122.86883
G1 X23.85 Y2.16 E122.88950
G1 X23.93 Y2.21 E122.89566
G1 X24.11 Y2.33 E122.90999
G1 X24.40 Y2.47 E122.93068
G1 X24.70 Y2.57 E122.95129
G1 X24.79 Y2.59 E122.95768
G1 X25.01 Y2.63 E122.97185
G1 X25.32 Y2.66 E122.99244
G1 X25.42 Y2.66 E122.99871
G1 X25.64 Y2.65 E123.01308
G1 X25.95 Y2.61 E123.03368
G1 X26.04 Y2.58 E123.03997
G1 X26.25 Y2.52 E123.05428
G1 X26.34 Y2.49 E123.06047
G1 X26.54 Y2.40 E123.07485
G1 X26.82 Y2.25 E123.09549
G1 X26.90 Y2.20 E123.10181
G1 X27.08 Y2.07 E123.11617
G1 X27.31 Y1.86 E123.13670
G1 X27.37 Y1.78 E123.14300
G1 X27.52 Y1.62 E123.15731
G1 X27.69 Y1.35 E123.17796
G1 X27.74 Y1.27 E123.18418
G1 X27.84 Y1.07 E123.19858
G1 X27.95 Y0.78 E123.21921
G1 X28.02 Y0.47 E123.23990
G1 X28.03 Y0.38 E123.24601
G1 X28.06 Y0.16 E123.26042
G1 X28.06 Y-0.16 E123.28086
G1 X28.05 Y-0.25 E123.28717
G1 X28.02 Y-0.47 E123.30158
G1 X27.95 Y-0.78 E123.32213
G1 X27.84 Y-1.07 E123.34267
G1 X27.79 Y-1.16 E123.34904
G1 X27.69 Y-1.35 E123.36338
G1 X27.52 Y-1.62 E123.38403
G1 X27.45 Y-1.69 E123.39033
G1 X27.31 Y-1.85 E123.40455
G1 X27.08 Y-2.07 E123.42521
G1 X27.00 Y-2.12 E123.43154
G1 X26.82 Y-2.25 E123.44581
G1 X26.54 Y-2.40 E123.46650
G1 X26.46 Y-2.44 E123.47271
G1 X26.25 Y-2.52 E123.48707
G1 X26.16 Y-2.55 E123.49322
G1 X25.95 Y-2.61 E123.50761
G1 X25.64 Y-2.65 E123.52834
G1 X25.54 Y-2.65 E123.53455
G1 X25.32 Y-2.66 E123.54886
G1 X25.01 Y-2.63 E123.56938
G1 X24.91 Y-2.62 E123.57577
G1 X24.70 Y-2.57 E123.59015
G1 X24.40 Y-2.47 E123.61068
G1 X24.11 Y-2.33 E123.63130
G1 X24.03 Y-2.28 E123.63752
