;Generated with Cura_SteamEngine 14.03
; automatic settings before start_gcode
G21 ; set units to millimeters
M107 ; fan off
M190 S70 ; wait for bed temperature to be reached
M104 T0 S255 ; start heating extruder 1
T0 ; set the active extruder to 0
; settings from start_gcode
G28
; automatic settings after start_gcode
M109 T0 S255 ; wait for extruder 1 to reach temperature
T0 ; set the active extruder to 0
G90 ; use absolute coordinates
G92 E0 ; reset the expected extruder position
M82 ; use absolute distance for extrusion
;Layer count: 175
;LAYER:0
M107
G0 F12000 X48.27 Y1.26 Z0.30
G0 X48.27 Y1.26
;TYPE:SKIRT
G1 Z0.30
G1 F9000 E0.00000
G1 F900 X48.27 Y3.34 E0.13566
G1 X48.28 Y6.49 E0.34140
G1 X48.27 Y22.25 E1.37082
G1 X-48.26 Y22.25 E7.67549
G1 X-48.28 Y6.49 E8.70491
G1 X-48.27 Y3.31 E8.91281
G1 X-48.27 Y-1.26 E9.21117
G1 X-48.27 Y-3.34 E9.34682
G1 X-48.28 Y-6.49 E9.55256
G1 X-48.27 Y-22.25 E10.58199
G1 X48.26 Y-22.25 E16.88666
G1 X48.28 Y-6.49 E17.91608
G1 X48.27 Y-3.31 E18.12398
G1 X48.27 Y1.26 E18.42233
G0 F12000 X47.77 Y1.26
G1 F900 X47.77 Y3.34 E18.55799
G1 X47.78 Y6.49 E18.76373
G1 X47.77 Y21.75 E19.76049
G1 X-47.76 Y21.75 E25.99992
G1 X-47.78 Y6.49 E26.99662
G1 X-47.77 Y3.31 E27.20451
G1 X-47.77 Y-1.26 E27.50293
G1 X-47.77 Y-3.34 E27.63859
G1 X-47.78 Y-6.49 E27.84433
G1 X-47.77 Y-21.75 E28.84110
G1 X47.76 Y-21.75 E35.08052
G1 X47.78 Y-6.49 E36.07722
G1 X47.77 Y-3.31 E36.28511
G1 X47.77 Y1.26 E36.58354
G0 F12000 X47.27 Y1.26
G1 F900 X47.27 Y3.34 E36.71919
G1 X47.28 Y6.49 E36.92500
G1 X47.27 Y21.25 E37.88911
G1 X-47.26 Y21.25 E44.06321
G1 X-47.28 Y6.49 E45.02726
G1 X-47.27 Y3.31 E45.23509
G1 X-47.27 Y-1.26 E45.53351
G1 X-47.27 Y-3.34 E45.66917
G1 X-47.28 Y-6.49 E45.87497
G1 X-47.27 Y-21.25 E46.83908
G1 X47.26 Y-21.25 E53.01319
G1 X47.28 Y-6.49 E53.97723
G1 X47.27 Y-3.31 E54.18506
G1 X47.27 Y1.26 E54.48348
G0 F12000 X46.77 Y1.26
G1 F900 X46.77 Y3.34 E54.61914
G1 X46.78 Y6.49 E54.82495
G1 X46.77 Y20.75 E55.75640
G1 X-46.76 Y20.75 E61.86532
G1 X-46.78 Y6.49 E62.79670
G1 X-46.77 Y3.31 E63.00447
G1 X-46.77 Y-1.26 E63.30296
G1 X-46.77 Y-3.34 E63.43862
G1 X-46.78 Y-6.49 E63.64442
G1 X-46.77 Y-20.75 E64.57587
G1 X46.76 Y-20.75 E70.68479
G1 X46.78 Y-6.49 E71.61618
G1 X46.77 Y-3.31 E71.82395
G1 X46.77 Y1.26 E72.12243
G0 F12000 X46.27 Y1.26
G1 F900 X46.27 Y3.34 E72.25809
G1 X46.28 Y6.49 E72.46396
G1 X46.27 Y20.25 E73.36269
G1 X-46.26 Y20.25 E79.40630
G1 X-46.28 Y6.49 E80.30496
G1 X-46.27 Y3.31 E80.51273
G1 X-46.27 Y-1.26 E80.81128
G1 X-46.27 Y-3.34 E80.94694
G1 X-46.28 Y-6.49 E81.15281
G1 X-46.27 Y-20.25 E82.05153
G1 X46.26 Y-20.25 E88.09514
G1 X46.28 Y-6.49 E88.99381
G1 X46.27 Y-3.31 E89.20157
G1 X46.27 Y1.26 E89.50012
G1 F9000 E81.50012
G1 Z1.05
G0 F12000 X34.77 Y3.33
;TYPE:WALL-INNER
G1 Z0.30
G1 F9000 E89.50012
G1 F900 X34.78 Y6.49 E89.70652
G1 X34.78 Y8.75 E89.85387
G1 X-34.78 Y8.75 E94.39675
G1 X-34.78 Y6.50 E94.54377
G1 X-34.77 Y3.33 E94.75049
G1 X-34.77 Y-3.33 E95.18601
G1 X-34.78 Y-6.49 E95.39240
G1 X-34.78 Y-8.75 E95.53975
G1 X34.78 Y-8.75 E100.08263
G1 X34.78 Y-6.50 E100.22965
G1 X34.77 Y-3.33 E100.43637
G1 X34.77 Y3.33 E100.87189
G0 F12000 X28.96 Y1.29
G1 F900 X29.01 Y1.15 E100.88204
G1 X29.09 Y0.87 E100.90074
G1 X29.12 Y0.71 E100.91114
G1 X29.17 Y0.44 E100.92945
G1 X29.18 Y0.28 E100.94018
G1 X29.19 Y0.01 E100.95785
G1 X29.18 Y-0.16 E100.96890
G1 X29.16 Y-0.44 E100.98690
G1 X29.14 Y-0.60 E100.99730
G1 X29.09 Y-0.87 E101.01554
G1 X29.04 Y-1.03 E101.02623
G1 X28.96 Y-1.30 E101.04453
G1 X28.90 Y-1.44 E101.05504
G1 X28.79 Y-1.70 E101.07326
G1 X28.71 Y-1.84 E101.08365
G1 X28.57 Y-2.08 E101.10211
G1 X28.31 Y-2.44 E101.13086
G1 X28.20 Y-2.55 E101.14135
G1 X28.00 Y-2.76 E101.15965
G1 X27.88 Y-2.86 E101.17031
G1 X27.66 Y-3.04 E101.18853
G1 X27.53 Y-3.13 E101.19909
G1 X27.30 Y-3.28 E101.21736
G1 X26.90 Y-3.48 E101.24627
G1 X26.75 Y-3.54 E101.25654
G1 X26.48 Y-3.63 E101.27518
G1 X26.32 Y-3.67 E101.28610
G1 X26.06 Y-3.73 E101.30384
G1 X25.90 Y-3.75 E101.31435
G1 X25.62 Y-3.79 E101.33257
G1 X25.18 Y-3.79 E101.36118
G1 X25.02 Y-3.77 E101.37176
G1 X24.75 Y-3.73 E101.38990
G1 X24.59 Y-3.70 E101.40063
G1 X24.31 Y-3.63 E101.41883
G1 X24.16 Y-3.58 E101.42937
G1 X23.90 Y-3.48 E101.44780
G1 X23.75 Y-3.41 E101.45840
G1 X23.50 Y-3.28 E101.47683
G1 X23.37 Y-3.19 E101.48710
G1 X23.14 Y-3.04 E101.50531
G1 X23.01 Y-2.94 E101.51579
G1 X22.80 Y-2.76 E101.53429
G1 X22.68 Y-2.64 E101.54496
G1 X22.50 Y-2.44 E101.56298
G1 X22.23 Y-2.08 E101.59192
G1 X22.15 Y-1.94 E101.60250
G1 X22.01 Y-1.70 E101.62082
G1 X21.95 Y-1.55 E101.63100
G1 X21.84 Y-1.29 E101.64949
G1 X21.79 Y-1.15 E101.65964
G1 X21.71 Y-0.87 E101.67834
G1 X21.68 Y-0.71 E101.68874
G1 X21.63 Y-0.44 E101.70705
G1 X21.62 Y-0.28 E101.71778
G1 X21.61 Y-0.01 E101.73545
G1 X21.62 Y0.16 E101.74650
G1 X21.63 Y0.44 E101.76450
G1 X21.66 Y0.60 E101.77490
G1 X21.71 Y0.87 E101.79314
G1 X21.75 Y1.03 E101.80383
G1 X21.84 Y1.30 E101.82213
G1 X21.90 Y1.44 E101.83264
G1 X22.01 Y1.70 E101.85086
G1 X22.09 Y1.84 E101.86125
G1 X22.23 Y2.08 E101.87971
G1 X22.49 Y2.44 E101.90846
G1 X22.60 Y2.55 E101.91895
G1 X22.80 Y2.76 E101.93725
G1 X22.92 Y2.86 E101.94791
G1 X23.14 Y3.04 E101.96613
G1 X23.27 Y3.13 E101.97660
G1 X23.50 Y3.28 E101.99499
G1 X23.65 Y3.36 E102.00530
G1 X23.90 Y3.48 E102.02388
G1 X24.05 Y3.54 E102.03415
G1 X24.32 Y3.63 E102.05279
G1 X24.48 Y3.67 E102.06370
G1 X24.74 Y3.73 E102.08144
G1 X24.90 Y3.75 E102.09195
G1 X25.18 Y3.79 E102.11017
G1 X25.62 Y3.79 E102.13878
G1 X25.78 Y3.77 E102.14936
G1 X26.05 Y3.73 E102.16751
G1 X26.21 Y3.70 E102.17824
G1 X26.48 Y3.63 E102.19644
G1 X26.64 Y3.58 E102.20697
G1 X26.91 Y3.48 E102.22561
G1 X27.30 Y3.28 E102.25447
G1 X27.43 Y3.20 E102.26451
G1 X27.66 Y3.04 E102.28282
G1 X28.00 Y2.76 E102.31189
G1 X28.11 Y2.64 E102.32256
G1 X28.30 Y2.44 E102.34059
G1 X28.57 Y2.08 E102.36952
G1 X28.65 Y1.94 E102.38011
G1 X28.79 Y1.70 E102.39842
G1 X28.85 Y1.55 E102.40860
G1 X28.96 Y1.29 E102.42710
G0 F12000 X26.33 Y3.10
G0 X24.12 Y2.98
G0 X22.50 Y1.45
G0 X-21.61 Y0.01
G1 F900 X-21.62 Y-0.16 E102.43815
G1 X-21.63 Y-0.44 E102.45615
G1 X-21.66 Y-0.60 E102.46654
G1 X-21.71 Y-0.87 E102.48479
G1 X-21.75 Y-1.03 E102.49547
G1 X-21.84 Y-1.30 E102.51378
G1 X-21.90 Y-1.44 E102.52428
G1 X-22.01 Y-1.70 E102.54251
G1 X-22.09 Y-1.84 E102.55289
G1 X-22.23 Y-2.08 E102.57136
G1 X-22.49 Y-2.44 E102.60011
G1 X-22.60 Y-2.55 E102.61060
G1 X-22.80 Y-2.76 E102.62890
G1 X-22.92 Y-2.86 E102.63956
G1 X-23.14 Y-3.04 E102.65778
G1 X-23.27 Y-3.13 E102.66825
G1 X-23.50 Y-3.28 E102.68664
G1 X-23.65 Y-3.36 E102.69695
G1 X-23.90 Y-3.48 E102.71553
G1 X-24.05 Y-3.54 E102.72579
G1 X-24.32 Y-3.63 E102.74443
G1 X-24.48 Y-3.67 E102.75535
G1 X-24.74 Y-3.73 E102.77309
G1 X-24.90 Y-3.75 E102.78360
G1 X-25.18 Y-3.79 E102.80182
G1 X-25.62 Y-3.79 E102.83043
G1 X-25.78 Y-3.77 E102.84101
G1 X-26.05 Y-3.73 E102.85916
G1 X-26.21 Y-3.70 E102.86988
G1 X-26.48 Y-3.63 E102.88808
G1 X-26.64 Y-3.58 E102.89862
G1 X-26.91 Y-3.48 E102.91726
G1 X-27.30 Y-3.28 E102.94612
G1 X-27.43 Y-3.20 E102.95615
G1 X-27.66 Y-3.04 E102.97447
G1 X-28.00 Y-2.76 E103.00354
G1 X-28.11 Y-2.64 E103.01421
G1 X-28.30 Y-2.44 E103.03223
G1 X-28.57 Y-2.08 E103.06117
G1 X-28.65 Y-1.94 E103.07175
G1 X-28.79 Y-1.70 E103.09007
G1 X-28.85 Y-1.55 E103.10025
G1 X-28.96 Y-1.29 E103.11874
G1 X-29.01 Y-1.15 E103.12889
G1 X-29.09 Y-0.87 E103.14759
G1 X-29.12 Y-0.71 E103.15799
G1 X-29.17 Y-0.44 E103.17630
G1 X-29.18 Y-0.28 E103.18703
G1 X-29.19 Y-0.01 E103.20470
G1 X-29.18 Y0.16 E103.21575
G1 X-29.16 Y0.44 E103.23375
G1 X-29.14 Y0.60 E103.24415
G1 X-29.09 Y0.87 E103.26239
G1 X-29.04 Y1.03 E103.27308
G1 X-28.96 Y1.30 E103.29138
G1 X-28.90 Y1.44 E103.30189
G1 X-28.79 Y1.70 E103.32011
G1 X-28.71 Y1.84 E103.33050
G1 X-28.57 Y2.08 E103.34896
G1 X-28.31 Y2.44 E103.37771
G1 X-28.20 Y2.55 E103.38820
G1 X-28.00 Y2.76 E103.40650
G1 X-27.88 Y2.86 E103.41716
G1 X-27.66 Y3.04 E103.43538
G1 X-27.53 Y3.13 E103.44594
G1 X-27.30 Y3.28 E103.46421
G1 X-26.90 Y3.48 E103.49312
G1 X-26.75 Y3.54 E103.50339
G1 X-26.48 Y3.63 E103.52203
G1 X-26.32 Y3.67 E103.53295
G1 X-26.06 Y3.73 E103.55069
G1 X-25.90 Y3.75 E103.56120
G1 X-25.62 Y3.79 E103.57942
G1 X-25.18 Y3.79 E103.60803
G1 X-25.02 Y3.77 E103.61861
G1 X-24.75 Y3.73 E103.63675
G1 X-24.59 Y3.70 E103.64748
G1 X-24.31 Y3.63 E103.66568
G1 X-24.16 Y3.58 E103.67622
G1 X-23.90 Y3.48 E103.69465
G1 X-23.75 Y3.41 E103.70525
G1 X-23.50 Y3.28 E103.72368
G1 X-23.37 Y3.19 E103.73395
G1 X-23.14 Y3.04 E103.75216
G1 X-23.01 Y2.94 E103.76264
G1 X-22.80 Y2.76 E103.78114
G1 X-22.68 Y2.64 E103.79181
G1 X-22.50 Y2.44 E103.80983
G1 X-22.23 Y2.08 E103.83877
G1 X-22.15 Y1.94 E103.84935
G1 X-22.01 Y1.70 E103.86767
G1 X-21.95 Y1.55 E103.87785
G1 X-21.84 Y1.29 E103.89634
G1 X-21.79 Y1.15 E103.90649
G1 X-21.71 Y0.87 E103.92519
G1 X-21.68 Y0.71 E103.93559
G1 X-21.63 Y0.44 E103.95390
G1 X-21.62 Y0.28 E103.96463
G1 X-21.61 Y0.01 E103.98230
G0 F12000 X-22.11 Y0.00
G1 F900 X-22.11 Y-0.13 E103.99126
G1 X-22.13 Y-0.38 E104.00743
G1 X-22.15 Y-0.51 E104.01597
G1 X-22.20 Y-0.76 E104.03236
G1 X-22.23 Y-0.89 E104.04106
G1 X-22.31 Y-1.13 E104.05745
G1 X-22.36 Y-1.25 E104.06605
G1 X-22.46 Y-1.48 E104.08234
G1 X-22.52 Y-1.59 E104.09091
G1 X-22.65 Y-1.81 E104.10742
G1 X-22.88 Y-2.11 E104.13238
G1 X-23.14 Y-2.39 E104.15738
G1 X-23.43 Y-2.64 E104.18242
G1 X-23.54 Y-2.71 E104.19104
G1 X-23.75 Y-2.85 E104.20745
G1 X-23.87 Y-2.91 E104.21621
G1 X-24.10 Y-3.02 E104.23254
G1 X-24.22 Y-3.07 E104.24099
G1 X-24.46 Y-3.15 E104.25754
G1 X-24.59 Y-3.18 E104.26646
G1 X-24.83 Y-3.24 E104.28245
G1 X-24.96 Y-3.26 E104.29112
G1 X-25.21 Y-3.29 E104.30743
G1 X-25.59 Y-3.29 E104.33232
G1 X-25.72 Y-3.27 E104.34099
G1 X-25.97 Y-3.24 E104.35730
G1 X-26.10 Y-3.21 E104.36608
G1 X-26.34 Y-3.15 E104.38233
G1 X-26.47 Y-3.11 E104.39101
G1 X-26.70 Y-3.02 E104.40756
G1 X-27.05 Y-2.85 E104.43259
G1 X-27.15 Y-2.78 E104.44089
G1 X-27.36 Y-2.64 E104.45736
G1 X-27.66 Y-2.39 E104.48249
G1 X-27.92 Y-2.11 E104.50749
G1 X-28.15 Y-1.81 E104.53250
G1 X-28.22 Y-1.69 E104.54116
G1 X-28.34 Y-1.47 E104.55757
G1 X-28.39 Y-1.36 E104.56597
G1 X-28.49 Y-1.12 E104.58247
G1 X-28.53 Y-1.00 E104.59086
G1 X-28.60 Y-0.76 E104.60750
G1 X-28.62 Y-0.63 E104.61604
G1 X-28.67 Y-0.38 E104.63243
G1 X-28.68 Y-0.25 E104.64120
G1 X-28.69 Y-0.00 E104.65716
G1 X-28.68 Y0.13 E104.66612
G1 X-28.67 Y0.38 E104.68229
G1 X-28.65 Y0.51 E104.69084
G1 X-28.60 Y0.76 E104.70722
G1 X-28.57 Y0.89 E104.71593
G1 X-28.49 Y1.13 E104.73231
G1 X-28.44 Y1.25 E104.74091
G1 X-28.34 Y1.48 E104.75721
G1 X-28.28 Y1.59 E104.76578
G1 X-28.15 Y1.81 E104.78228
G1 X-27.92 Y2.11 E104.80724
G1 X-27.66 Y2.39 E104.83224
G1 X-27.36 Y2.64 E104.85728
G1 X-27.25 Y2.71 E104.86599
G1 X-27.05 Y2.85 E104.88228
G1 X-26.70 Y3.02 E104.90731
G1 X-26.58 Y3.07 E104.91584
G1 X-26.34 Y3.15 E104.93240
G1 X-26.21 Y3.18 E104.94132
G1 X-25.97 Y3.24 E104.95730
G1 X-25.84 Y3.26 E104.96598
G1 X-25.59 Y3.29 E104.98228
G1 X-25.21 Y3.29 E105.00717
G1 X-25.08 Y3.27 E105.01585
G1 X-24.83 Y3.24 E105.03216
G1 X-24.70 Y3.21 E105.04093
G1 X-24.46 Y3.15 E105.05719
G1 X-24.33 Y3.11 E105.06586
G1 X-24.09 Y3.02 E105.08233
G1 X-23.98 Y2.96 E105.09104
G1 X-23.75 Y2.85 E105.10742
G1 X-23.64 Y2.78 E105.11595
G1 X-23.43 Y2.64 E105.13222
G1 X-23.14 Y2.39 E105.15735
G1 X-22.88 Y2.11 E105.18235
G1 X-22.65 Y1.81 E105.20737
G1 X-22.58 Y1.69 E105.21603
G1 X-22.46 Y1.47 E105.23244
G1 X-22.41 Y1.36 E105.24083
G1 X-22.31 Y1.12 E105.25734
G1 X-22.27 Y1.00 E105.26572
G1 X-22.20 Y0.76 E105.28236
G1 X-22.18 Y0.63 E105.29091
G1 X-22.13 Y0.38 E105.30729
G1 X-22.12 Y0.25 E105.31606
G1 X-22.11 Y0.00 E105.33203
G0 F12000 X-22.92 Y2.08
G0 X-24.84 Y3.19
G0 X-27.02 Y2.81
G0 X-35.27 Y3.33
G1 F900 X-35.27 Y-3.33 E105.76754
G1 X-35.28 Y-6.49 E105.97394
G1 X-35.28 Y-9.25 E106.15394
G1 X35.28 Y-9.25 E110.76214
G1 X35.28 Y-6.50 E110.94188
G1 X35.27 Y-3.33 E111.14854
G1 X35.27 Y3.33 E111.58406
G1 X35.28 Y6.49 E111.79045
G1 X35.28 Y9.25 E111.97046
G1 X-35.28 Y9.25 E116.57865
G1 X-35.28 Y6.50 E116.75840
G1 X-35.27 Y3.33 E116.96505
G0 F12000 X-24.35 Y3.06
G0 X22.11 Y0.13
G1 F900 X22.13 Y0.38 E116.98122
G1 X22.15 Y0.51 E116.98977
G1 X22.20 Y0.76 E117.00615
G1 X22.23 Y0.89 E117.01486
G1 X22.31 Y1.13 E117.03124
G1 X22.36 Y1.25 E117.03984
G1 X22.46 Y1.48 E117.05614
G1 X22.52 Y1.59 E117.06471
G1 X22.65 Y1.81 E117.08121
G1 X22.88 Y2.11 E117.10617
G1 X23.14 Y2.39 E117.13117
G1 X23.43 Y2.64 E117.15621
G1 X23.54 Y2.71 E117.16483
G1 X23.75 Y2.85 E117.18124
G1 X23.87 Y2.91 E117.19001
G1 X24.10 Y3.02 E117.20634
G1 X24.22 Y3.07 E117.21478
G1 X24.46 Y3.15 E117.23134
G1 X24.59 Y3.18 E117.24026
G1 X24.83 Y3.24 E117.25624
G1 X24.96 Y3.26 E117.26492
G1 X25.21 Y3.29 E117.28122
G1 X25.59 Y3.29 E117.30611
G1 X25.72 Y3.27 E117.31479
G1 X25.97 Y3.24 E117.33110
G1 X26.10 Y3.21 E117.33987
G1 X26.34 Y3.15 E117.35613
G1 X26.47 Y3.11 E117.36480
G1 X26.70 Y3.02 E117.38135
G1 X27.05 Y2.85 E117.40639
G1 X27.15 Y2.78 E117.41468
G1 X27.36 Y2.64 E117.43115
G1 X27.66 Y2.39 E117.45628
G1 X27.92 Y2.11 E117.48128
G1 X28.15 Y1.81 E117.50629
G1 X28.22 Y1.69 E117.51495
G1 X28.34 Y1.47 E117.53137
G1 X28.39 Y1.36 E117.53976
G1 X28.49 Y1.12 E117.55626
G1 X28.53 Y1.00 E117.56465
G1 X28.60 Y0.76 E117.58129
G1 X28.62 Y0.63 E117.58984
G1 X28.67 Y0.38 E117.60622
G1 X28.68 Y0.25 E117.61499
G1 X28.69 Y0.00 E117.63096
G1 X28.68 Y-0.13 E117.63992
G1 X28.67 Y-0.38 E117.65608
G1 X28.65 Y-0.51 E117.66463
G1 X28.60 Y-0.76 E117.68102
G1 X28.57 Y-0.89 E117.68972
G1 X28.49 Y-1.13 E117.70610
G1 X28.44 Y-1.25 E117.71471
G1 X28.34 Y-1.48 E117.73100
G1 X28.28 Y-1.59 E117.73957
G1 X28.15 Y-1.81 E117.75607
G1 X27.92 Y-2.11 E117.78104
G1 X27.66 Y-2.39 E117.80604
G1 X27.36 Y-2.64 E117.83107
G1 X27.25 Y-2.71 E117.83979
G1 X27.05 Y-2.85 E117.85607
G1 X26.70 Y-3.02 E117.88111
G1 X26.58 Y-3.07 E117.88964
G1 X26.34 Y-3.15 E117.90619
G1 X26.21 Y-3.18 E117.91511
G1 X25.97 Y-3.24 E117.93109
G1 X25.84 Y-3.26 E117.93977
G1 X25.59 Y-3.29 E117.95608
G1 X25.21 Y-3.29 E117.98096
G1 X25.08 Y-3.27 E117.98964
G1 X24.83 Y-3.24 E118.00595
G1 X24.70 Y-3.21 E118.01473
G1 X24.46 Y-3.15 E118.03098
G1 X24.33 Y-3.11 E118.03966
G1 X24.09 Y-3.02 E118.05612
G1 X23.98 Y-2.96 E118.06483
G1 X23.75 Y-2.85 E118.08122
G1 X23.64 Y-2.78 E118.08975
G1 X23.43 Y-2.64 E118.10602
G1 X23.14 Y-2.39 E118.13115
G1 X22.88 Y-2.11 E118.15614
G1 X22.65 Y-1.81 E118.18116
G1 X22.58 Y-1.69 E118.18982
G1 X22.46 Y-1.47 E118.20623
G1 X22.41 Y-1.36 E118.21463
G1 X22.31 Y-1.12 E118.23113
G1 X22.27 Y-1.00 E118.23952
G1 X22.20 Y-0.76 E118.25615
G1 X22.18 Y-0.63 E118.26470
G1 X22.13 Y-0.38 E118.28109
G1 X22.12 Y-0.25 E118.28985
G1 X22.11 Y-0.00 E118.30582
G1 X22.11 Y0.13 E118.31478
G0 F12000 X22.61 Y0.10
;TYPE:WALL-OUTER
G1 F900 X22.63 Y0.32 E118.32911
G1 X22.65 Y0.42 E118.33588
G1 X22.68 Y0.64 E118.35027
G1 X22.71 Y0.74 E118.35707
G1 X22.78 Y0.95 E118.37155
G1 X22.82 Y1.05 E118.37828
G1 X22.91 Y1.25 E118.39268
G1 X23.07 Y1.53 E118.41386
G1 X23.26 Y1.79 E118.43510
G1 X23.48 Y2.03 E118.45626
G1 X23.73 Y2.24 E118.47750
G1 X24.00 Y2.42 E118.49867
G1 X24.10 Y2.46 E118.50548
G1 X24.29 Y2.56 E118.51988
G1 X24.39 Y2.60 E118.52659
G1 X24.60 Y2.67 E118.54114
G1 X24.70 Y2.70 E118.54798
G1 X24.91 Y2.75 E118.56229
G1 X25.02 Y2.76 E118.56905
G1 X25.24 Y2.79 E118.58346
G1 X25.56 Y2.79 E118.60462
G1 X25.66 Y2.77 E118.61139
G1 X25.88 Y2.75 E118.62586
G1 X25.98 Y2.72 E118.63264
G1 X26.20 Y2.67 E118.64700
G1 X26.30 Y2.64 E118.65380
G1 X26.51 Y2.56 E118.66833
G1 X26.80 Y2.42 E118.68950
G1 X26.88 Y2.36 E118.69615
G1 X27.07 Y2.24 E118.71059
G1 X27.32 Y2.03 E118.73187
G1 X27.54 Y1.79 E118.75304
G1 X27.73 Y1.53 E118.77428
G1 X27.89 Y1.25 E118.79552
G1 X27.93 Y1.16 E118.80213
G1 X28.02 Y0.95 E118.81664
G1 X28.05 Y0.86 E118.82325
G1 X28.11 Y0.64 E118.83786
G1 X28.13 Y0.54 E118.84455
G1 X28.17 Y0.32 E118.85902
G1 X28.18 Y0.22 E118.86582
G1 X28.19 Y0.00 E118.88008
G1 X28.18 Y-0.10 E118.88695
G1 X28.17 Y-0.32 E118.90128
G1 X28.15 Y-0.42 E118.90805
G1 X28.11 Y-0.64 E118.92244
G1 X28.09 Y-0.74 E118.92924
G1 X28.02 Y-0.95 E118.94372
G1 X27.98 Y-1.05 E118.95045
G1 X27.89 Y-1.25 E118.96484
G1 X27.73 Y-1.53 E118.98603
G1 X27.54 Y-1.79 E119.00727
G1 X27.32 Y-2.03 E119.02843
G1 X27.07 Y-2.24 E119.04966
G1 X26.98 Y-2.29 E119.05646
G1 X26.79 Y-2.42 E119.07090
G1 X26.50 Y-2.56 E119.09204
