;Generated with Cura_SteamEngine 14.03
; automatic settings before start_gcode
G21 ; set units to millimeters
M107 ; fan off
M190 S96 ; wait for bed temperature to be reached
M104 T0 S232 ; start heating extruder 1
T0 ; set the active extruder to 0
; settings from start_gcode
G28
; automatic settings after start_gcode
M109 T0 S232 ; wait for extruder 1 to reach temperature
T0 ; set the active extruder to 0
G90 ; use absolute coordinates
G92 E0 ; reset the expected extruder position
M82 ; use absolute distance for extrusion
;Layer count: 125
;LAYER:0
M107
G0 F12000 X17.28 Y13.25 Z0.30
G0 X17.28 Y13.25
;TYPE:SKIRT
G1 Z0.30
G1 F9000 E0.00000
G1 F900 X17.11 Y13.47 E0.01837
G1 X16.97 Y13.64 E0.03220
G1 X16.57 Y14.14 E0.07358
G1 X16.40 Y14.33 E0.09008
G1 X15.95 Y14.83 E0.13340
G1 X15.79 Y14.99 E0.14778
G1 X15.58 Y15.21 E0.16801
G1 X15.41 Y15.38 E0.18353
G1 X14.92 Y15.86 E0.22763
G1 X14.76 Y16.00 E0.24125
G1 X14.28 Y16.45 E0.28370
G1 X14.09 Y16.59 E0.29900
G1 X13.86 Y16.80 E0.31933
G1 X13.68 Y16.94 E0.33412
G1 X13.12 Y17.39 E0.38029
G1 X12.92 Y17.53 E0.39596
G1 X12.66 Y17.72 E0.41665
G1 X12.48 Y17.84 E0.43065
G1 X11.99 Y18.18 E0.46895
G1 X11.80 Y18.30 E0.48402
G1 X11.17 Y18.70 E0.53155
G1 X10.99 Y18.80 E0.54487
G1 X10.70 Y18.96 E0.56648
G1 X10.48 Y19.08 E0.58260
G1 X9.81 Y19.45 E0.63222
G1 X9.60 Y19.54 E0.64704
G1 X9.14 Y19.77 E0.67967
G1 X8.93 Y19.86 E0.69500
G1 X8.64 Y19.99 E0.71511
G1 X8.44 Y20.07 E0.72958
G1 X7.72 Y20.37 E0.77937
G1 X7.50 Y20.44 E0.79448
G1 X7.19 Y20.56 E0.81586
G1 X6.97 Y20.63 E0.83056
G1 X6.22 Y20.88 E0.88180
G1 X6.01 Y20.93 E0.89577
G1 X5.70 Y21.02 E0.91663
G1 X5.47 Y21.08 E0.93194
G1 X4.67 Y21.28 E0.98499
G1 X4.47 Y21.31 E0.99807
G1 X4.07 Y21.40 E1.02444
G1 X3.83 Y21.43 E1.04018
G1 X3.06 Y21.57 E1.09082
G1 X2.83 Y21.59 E1.10565
G1 X2.52 Y21.64 E1.12619
G1 X2.27 Y21.65 E1.14186
G1 X1.49 Y21.74 E1.19301
G1 X1.28 Y21.74 E1.20618
G1 X0.96 Y21.76 E1.22703
G1 X0.73 Y21.76 E1.24213
G1 X0.40 Y21.77 E1.26352
G1 X-0.41 Y21.77 E1.31536
G1 X-0.74 Y21.76 E1.33674
G1 X-0.97 Y21.76 E1.35184
G1 X-1.76 Y21.70 E1.40305
G1 X-1.97 Y21.69 E1.41620
G1 X-2.28 Y21.65 E1.43658
G1 X-2.53 Y21.63 E1.45264
G1 X-3.31 Y21.52 E1.50351
G1 X-3.53 Y21.49 E1.51801
G1 X-3.95 Y21.41 E1.54536
G1 X-4.16 Y21.38 E1.55923
G1 X-4.96 Y21.20 E1.61175
G1 X-5.16 Y21.15 E1.62527
G1 X-5.48 Y21.07 E1.64676
G1 X-5.71 Y21.02 E1.66208
G1 X-6.47 Y20.79 E1.71333
G1 X-6.70 Y20.72 E1.72885
G1 X-6.99 Y20.62 E1.74814
G1 X-7.20 Y20.55 E1.76284
G1 X-7.92 Y20.28 E1.81266
G1 X-8.17 Y20.18 E1.83005
G1 X-8.45 Y20.07 E1.84913
G1 X-8.65 Y19.98 E1.86360
G1 X-9.13 Y19.77 E1.89703
G1 X-9.33 Y19.68 E1.91150
G1 X-10.02 Y19.33 E1.96127
G1 X-10.21 Y19.23 E1.97497
G1 X-10.49 Y19.08 E1.99605
G1 X-10.71 Y18.96 E2.01217
G1 X-11.35 Y18.59 E2.05972
G1 X-11.54 Y18.46 E2.07455
G1 X-12.03 Y18.15 E2.11207
G1 X-12.27 Y17.98 E2.13098
G1 X-12.49 Y17.83 E2.14797
G1 X-12.67 Y17.71 E2.16198
G1 X-13.25 Y17.29 E2.20820
G1 X-13.45 Y17.12 E2.22506
G1 X-13.45 Y17.12 E2.22515
G1 X-13.69 Y16.93 E2.24464
G1 X-13.87 Y16.79 E2.25943
G1 X-14.35 Y16.38 E2.30087
G1 X-14.52 Y16.22 E2.31555
G1 X-15.03 Y15.76 E2.35969
G1 X-15.23 Y15.56 E2.37776
G1 X-15.42 Y15.38 E2.39520
G1 X-15.59 Y15.21 E2.41072
G1 X-16.06 Y14.71 E2.45484
G1 X-16.20 Y14.55 E2.46851
G1 X-16.62 Y14.07 E2.50999
G1 X-16.82 Y13.82 E2.53043
G1 X-16.98 Y13.63 E2.54653
G1 X-17.11 Y13.46 E2.56035
G1 X-17.55 Y12.89 E2.60658
G1 X-17.71 Y12.67 E2.62447
G1 X-18.03 Y12.21 E2.66054
G1 X-18.15 Y12.03 E2.67480
G1 X-18.55 Y11.42 E2.72144
G1 X-18.66 Y11.22 E2.73658
G1 X-18.83 Y10.94 E2.75770
G1 X-18.93 Y10.75 E2.77160
G1 X-19.10 Y10.46 E2.79302
G1 X-19.21 Y10.25 E2.80859
G1 X-19.57 Y9.56 E2.85822
G1 X-19.65 Y9.38 E2.87111
G1 X-19.88 Y8.90 E2.90562
G1 X-20.00 Y8.62 E2.92550
G1 X-20.28 Y7.96 E2.97163
G1 X-20.34 Y7.76 E2.98475
G1 X-20.46 Y7.46 E3.00583
G1 X-20.53 Y7.24 E3.02094
G1 X-20.80 Y6.50 E3.07177
G1 X-20.85 Y6.26 E3.08715
G1 X-20.95 Y5.96 E3.10783
G1 X-21.00 Y5.74 E3.12268
G1 X-21.09 Y5.42 E3.14380
G1 X-21.14 Y5.20 E3.15824
G1 X-21.33 Y4.41 E3.21070
G1 X-21.36 Y4.19 E3.22496
G1 X-21.45 Y3.79 E3.25123
G1 X-21.49 Y3.52 E3.26906
G1 X-21.49 Y3.52 E3.26913
G1 X-21.61 Y2.78 E3.31771
G1 X-21.62 Y2.56 E3.33169
G1 X-21.66 Y2.23 E3.35310
G1 X-21.68 Y1.99 E3.36890
G1 X-21.75 Y1.22 E3.41868
G1 X-21.75 Y0.99 E3.43346
G1 X-21.77 Y0.68 E3.45383
G1 X-21.77 Y0.44 E3.46900
G1 X-21.77 Y0.10 E3.49147
G1 X-21.77 Y-0.11 E3.50457
G1 X-21.77 Y-0.46 E3.52704
G1 X-21.77 Y-0.69 E3.54221
G1 X-21.73 Y-1.48 E3.59342
G1 X-21.71 Y-1.70 E3.60766
G1 X-21.68 Y-2.04 E3.62951
G1 X-21.66 Y-2.25 E3.64291
G1 X-21.56 Y-3.03 E3.69379
G1 X-21.53 Y-3.25 E3.70829
G1 X-21.47 Y-3.65 E3.73411
G1 X-21.43 Y-3.88 E3.74955
G1 X-21.27 Y-4.68 E3.80200
G1 X-21.21 Y-4.91 E3.81744
G1 X-21.14 Y-5.21 E3.83761
G1 X-21.09 Y-5.43 E3.85205
G1 X-21.00 Y-5.75 E3.87317
G1 X-20.95 Y-5.97 E3.88802
G1 X-20.71 Y-6.73 E3.93933
G1 X-20.64 Y-6.95 E3.95444
G1 X-20.53 Y-7.25 E3.97498
G1 X-20.46 Y-7.47 E3.99000
G1 X-20.18 Y-8.19 E4.03978
G1 X-20.10 Y-8.38 E4.05312
G1 X-19.89 Y-8.86 E4.08655
G1 X-19.79 Y-9.09 E4.10270
G1 X-19.46 Y-9.78 E4.15243
G1 X-19.36 Y-9.96 E4.16575
G1 X-19.21 Y-10.26 E4.18720
G1 X-19.09 Y-10.47 E4.20277
G1 X-18.93 Y-10.76 E4.22419
G1 X-18.83 Y-10.95 E4.23809
G1 X-18.44 Y-11.58 E4.28566
G1 X-18.31 Y-11.78 E4.30105
G1 X-17.99 Y-12.27 E4.33929
G1 X-17.87 Y-12.44 E4.35260
G1 X-17.45 Y-13.03 E4.39881
G1 X-17.28 Y-13.25 E4.41705
G1 X-17.11 Y-13.47 E4.43542
G1 X-16.97 Y-13.64 E4.44925
G1 X-16.57 Y-14.14 E4.49063
G1 X-16.40 Y-14.33 E4.50713
G1 X-15.95 Y-14.83 E4.55045
G1 X-15.79 Y-14.99 E4.56483
G1 X-15.58 Y-15.21 E4.58506
G1 X-15.41 Y-15.38 E4.60058
G1 X-14.92 Y-15.86 E4.64468
G1 X-14.76 Y-16.00 E4.65830
G1 X-14.28 Y-16.45 E4.70075
G1 X-14.09 Y-16.59 E4.71605
G1 X-13.86 Y-16.80 E4.73638
G1 X-13.68 Y-16.94 E4.75117
G1 X-13.12 Y-17.39 E4.79734
G1 X-12.92 Y-17.53 E4.81301
G1 X-12.66 Y-17.72 E4.83370
G1 X-12.48 Y-17.84 E4.84770
G1 X-11.99 Y-18.18 E4.88601
G1 X-11.80 Y-18.30 E4.90107
G1 X-11.17 Y-18.70 E4.94860
G1 X-10.99 Y-18.80 E4.96192
G1 X-10.70 Y-18.96 E4.98353
G1 X-10.48 Y-19.08 E4.99965
G1 X-9.81 Y-19.45 E5.04927
G1 X-9.60 Y-19.54 E5.06410
G1 X-9.14 Y-19.77 E5.09672
G1 X-8.93 Y-19.86 E5.11205
G1 X-8.64 Y-19.99 E5.13217
G1 X-8.44 Y-20.07 E5.14664
G1 X-7.72 Y-20.37 E5.19642
G1 X-7.50 Y-20.44 E5.21153
G1 X-7.19 Y-20.56 E5.23292
G1 X-6.97 Y-20.63 E5.24761
G1 X-6.22 Y-20.88 E5.29886
G1 X-6.01 Y-20.93 E5.31282
G1 X-5.70 Y-21.02 E5.33368
G1 X-5.47 Y-21.08 E5.34899
G1 X-4.67 Y-21.28 E5.40204
G1 X-4.47 Y-21.31 E5.41513
G1 X-4.07 Y-21.40 E5.44149
G1 X-3.83 Y-21.43 E5.45723
G1 X-3.06 Y-21.57 E5.50787
G1 X-2.83 Y-21.59 E5.52270
G1 X-2.52 Y-21.64 E5.54324
G1 X-2.27 Y-21.65 E5.55891
G1 X-1.49 Y-21.74 E5.61006
G1 X-1.28 Y-21.74 E5.62323
G1 X-0.96 Y-21.76 E5.64408
G1 X-0.73 Y-21.76 E5.65918
G1 X-0.40 Y-21.77 E5.68057
G1 X0.41 Y-21.77 E5.73241
G1 X0.74 Y-21.76 E5.75379
G1 X0.97 Y-21.76 E5.76890
G1 X1.76 Y-21.70 E5.82010
G1 X1.97 Y-21.69 E5.83325
G1 X2.28 Y-21.65 E5.85363
G1 X2.53 Y-21.63 E5.86969
G1 X3.31 Y-21.52 E5.92056
G1 X3.53 Y-21.49 E5.93506
G1 X3.95 Y-21.41 E5.96241
G1 X4.16 Y-21.38 E5.97628
G1 X4.96 Y-21.20 E6.02880
G1 X5.16 Y-21.15 E6.04232
G1 X5.48 Y-21.07 E6.06381
G1 X5.71 Y-21.02 E6.07913
G1 X6.47 Y-20.79 E6.13038
G1 X6.70 Y-20.72 E6.14590
G1 X6.99 Y-20.62 E6.16519
G1 X7.20 Y-20.55 E6.17989
G1 X7.92 Y-20.28 E6.22971
G1 X8.17 Y-20.18 E6.24710
G1 X8.45 Y-20.07 E6.26618
G1 X8.65 Y-19.98 E6.28065
G1 X9.13 Y-19.77 E6.31408
G1 X9.33 Y-19.68 E6.32855
G1 X10.02 Y-19.33 E6.37832
G1 X10.21 Y-19.23 E6.39202
G1 X10.49 Y-19.08 E6.41310
G1 X10.71 Y-18.96 E6.42922
G1 X11.35 Y-18.59 E6.47677
G1 X11.54 Y-18.46 E6.49160
G1 X12.03 Y-18.15 E6.52912
G1 X12.27 Y-17.98 E6.54794
G1 X12.49 Y-17.83 E6.56502
G1 X12.67 Y-17.71 E6.57903
G1 X13.25 Y-17.29 E6.62525
G1 X13.45 Y-17.12 E6.64211
G1 X13.45 Y-17.12 E6.64220
G1 X13.69 Y-16.93 E6.66169
G1 X13.87 Y-16.79 E6.67648
G1 X14.35 Y-16.38 E6.71792
G1 X14.52 Y-16.22 E6.73260
G1 X15.03 Y-15.76 E6.77674
G1 X15.20 Y-15.59 E6.79281
G1 X15.42 Y-15.38 E6.81225
G1 X15.59 Y-15.21 E6.82777
G1 X16.06 Y-14.71 E6.87189
G1 X16.20 Y-14.55 E6.88556
G1 X16.62 Y-14.07 E6.92704
G1 X16.81 Y-13.84 E6.94642
G1 X16.98 Y-13.63 E6.96358
G1 X17.11 Y-13.46 E6.97740
G1 X17.55 Y-12.89 E7.02363
G1 X17.71 Y-12.67 E7.04152
G1 X18.03 Y-12.21 E7.07759
G1 X18.15 Y-12.03 E7.09185
G1 X18.55 Y-11.42 E7.13849
G1 X18.66 Y-11.22 E7.15363
G1 X18.83 Y-10.94 E7.17475
G1 X18.93 Y-10.75 E7.18865
G1 X19.10 Y-10.46 E7.21007
G1 X19.21 Y-10.25 E7.22564
G1 X19.57 Y-9.56 E7.27527
G1 X19.65 Y-9.38 E7.28816
G1 X19.88 Y-8.90 E7.32267
G1 X20.00 Y-8.62 E7.34240
G1 X20.28 Y-7.96 E7.38868
G1 X20.34 Y-7.76 E7.40180
G1 X20.46 Y-7.46 E7.42288
G1 X20.53 Y-7.24 E7.43799
G1 X20.80 Y-6.50 E7.48883
G1 X20.85 Y-6.26 E7.50420
G1 X20.95 Y-5.96 E7.52489
G1 X21.00 Y-5.74 E7.53973
G1 X21.09 Y-5.42 E7.56085
G1 X21.14 Y-5.20 E7.57529
G1 X21.33 Y-4.41 E7.62775
G1 X21.36 Y-4.21 E7.64110
G1 X21.45 Y-3.79 E7.66828
G1 X21.49 Y-3.52 E7.68611
G1 X21.49 Y-3.52 E7.68618
G1 X21.61 Y-2.78 E7.73475
G1 X21.62 Y-2.56 E7.74874
G1 X21.66 Y-2.23 E7.77015
G1 X21.68 Y-2.03 E7.78348
G1 X21.75 Y-1.22 E7.83572
G1 X21.75 Y-1.01 E7.84967
G1 X21.77 Y-0.68 E7.87088
G1 X21.77 Y-0.44 E7.88605
G1 X21.77 Y-0.10 E7.90851
G1 X21.77 Y0.11 E7.92162
G1 X21.77 Y0.46 E7.94409
G1 X21.77 Y0.69 E7.95926
G1 X21.73 Y1.48 E8.01047
G1 X21.71 Y1.70 E8.02471
G1 X21.68 Y1.99 E8.04332
G1 X21.66 Y2.25 E8.05996
G1 X21.56 Y3.03 E8.11084
G1 X21.53 Y3.25 E8.12533
G1 X21.47 Y3.65 E8.15116
G1 X21.43 Y3.88 E8.16660
G1 X21.27 Y4.68 E8.21905
G1 X21.21 Y4.91 E8.23449
G1 X21.14 Y5.21 E8.25466
G1 X21.09 Y5.43 E8.26910
G1 X21.00 Y5.75 E8.29022
G1 X20.95 Y5.97 E8.30506
G1 X20.71 Y6.73 E8.35638
G1 X20.64 Y6.95 E8.37148
G1 X20.53 Y7.25 E8.39202
G1 X20.46 Y7.47 E8.40705
G1 X20.18 Y8.19 E8.45682
G1 X20.10 Y8.38 E8.47017
G1 X19.89 Y8.86 E8.50360
G1 X19.79 Y9.09 E8.51975
G1 X19.46 Y9.78 E8.56948
G1 X19.36 Y9.96 E8.58280
G1 X19.21 Y10.26 E8.60425
G1 X19.09 Y10.47 E8.61982
G1 X18.93 Y10.76 E8.64124
G1 X18.83 Y10.95 E8.65514
G1 X18.44 Y11.58 E8.70271
G1 X18.31 Y11.78 E8.71810
G1 X17.99 Y12.27 E8.75634
G1 X17.87 Y12.44 E8.76965
G1 X17.45 Y13.03 E8.81586
G1 X17.28 Y13.25 E8.83410
G0 F12000 X16.90 Y12.92
G1 F900 X16.71 Y13.16 E8.85394
G1 X16.58 Y13.32 E8.86722
G1 X16.19 Y13.81 E8.90773
G1 X16.02 Y13.99 E8.92364
G1 X15.59 Y14.49 E8.96603
G1 X15.43 Y14.64 E8.98046
G1 X15.22 Y14.87 E9.00005
G1 X15.06 Y15.03 E9.01502
G1 X14.58 Y15.50 E9.05821
G1 X14.42 Y15.64 E9.07220
G1 X13.95 Y16.07 E9.11282
G1 X13.79 Y16.20 E9.12656
G1 X13.54 Y16.41 E9.14790
G1 X13.37 Y16.55 E9.16208
G1 X12.82 Y16.99 E9.20725
G1 X12.63 Y17.11 E9.22167
G1 X12.37 Y17.31 E9.24305
G1 X12.20 Y17.43 E9.25645
G1 X11.72 Y17.76 E9.29407
G1 X11.53 Y17.88 E9.30856
G1 X10.92 Y18.27 E9.35502
G1 X10.74 Y18.36 E9.36805
G1 X10.46 Y18.53 E9.38937
G1 X10.25 Y18.64 E9.40488
G1 X9.59 Y19.00 E9.45332
G1 X9.39 Y19.09 E9.46722
G1 X8.94 Y19.31 E9.49978
G1 X8.75 Y19.39 E9.51307
G1 X8.44 Y19.53 E9.53459
G1 X8.24 Y19.61 E9.54851
G1 X7.55 Y19.90 E9.59711
G1 X7.33 Y19.97 E9.61187
G1 X7.02 Y20.08 E9.63299
G1 X6.82 Y20.15 E9.64714
G1 X6.08 Y20.39 E9.69716
G1 X5.89 Y20.44 E9.70993
G1 X5.57 Y20.54 E9.73147
G1 X5.35 Y20.59 E9.74617
G1 X4.57 Y20.79 E9.79796
G1 X4.36 Y20.82 E9.81144
G1 X3.98 Y20.90 E9.83661
G1 X3.78 Y20.94 E9.85007
G1 X3.00 Y21.07 E9.90116
G1 X2.78 Y21.09 E9.91501
G1 X2.46 Y21.14 E9.93602
G1 X2.24 Y21.15 E9.95013
G1 X1.46 Y21.24 E10.00096
G1 X1.26 Y21.24 E10.01387
G1 X0.94 Y21.26 E10.03452
G1 X0.71 Y21.26 E10.04937
G1 X0.39 Y21.27 E10.07037
G1 X-0.40 Y21.27 E10.12105
G1 X-0.72 Y21.26 E10.14204
G1 X-0.95 Y21.26 E10.15689
G1 X-1.73 Y21.20 E10.20687
G1 X-1.92 Y21.19 E10.21956
G1 X-2.25 Y21.15 E10.24085
G1 X-2.47 Y21.14 E10.25535
G1 X-3.23 Y21.03 E10.30499
G1 X-3.45 Y20.99 E10.31897
G1 X-3.85 Y20.92 E10.34546
G1 X-4.07 Y20.89 E10.35939
G1 X-4.84 Y20.72 E10.41060
G1 X-5.04 Y20.67 E10.42358
G1 X-5.36 Y20.59 E10.44508
G1 X-5.58 Y20.53 E10.45978
G1 X-6.32 Y20.32 E10.50983
G1 X-6.54 Y20.24 E10.52473
G1 X-6.83 Y20.15 E10.54411
G1 X-7.04 Y20.08 E10.55825
G1 X-7.74 Y19.82 E10.60688
G1 X-7.98 Y19.72 E10.62355
G1 X-8.26 Y19.61 E10.64274
G1 X-8.46 Y19.52 E10.65666
G1 X-8.92 Y19.31 E10.68960
G1 X-9.12 Y19.22 E10.70350
G1 X-9.79 Y18.89 E10.75206
G1 X-9.94 Y18.81 E10.76292
G1 X-10.26 Y18.64 E10.78632
G1 X-10.47 Y18.52 E10.80183
G1 X-11.09 Y18.16 E10.84828
G1 X-11.27 Y18.04 E10.86250
G1 X-11.76 Y17.73 E10.89932
G1 X-11.93 Y17.61 E10.91318
G1 X-12.21 Y17.42 E10.93472
G1 X-12.38 Y17.30 E10.94812
G1 X-12.94 Y16.89 E10.99332
G1 X-13.11 Y16.76 E11.00697
G1 X-13.38 Y16.54 E11.02912
G1 X-13.55 Y16.41 E11.04330
G1 X-14.02 Y16.00 E11.08387
G1 X-14.19 Y15.85 E11.09801
G1 X-14.68 Y15.40 E11.14118
G1 X-14.87 Y15.21 E11.15858
G1 X-15.07 Y15.02 E11.17615
G1 X-15.23 Y14.86 E11.19112
G1 X-15.69 Y14.37 E11.23428
G1 X-15.82 Y14.22 E11.24740
G1 X-16.24 Y13.75 E11.28802
G1 X-16.38 Y13.57 E11.30266
G1 X-16.59 Y13.32 E11.32395
G1 X-16.72 Y13.15 E11.33723
G1 X-17.15 Y12.60 E11.38245
G1 X-17.30 Y12.38 E11.39964
G1 X-17.62 Y11.93 E11.43511
G1 X-17.73 Y11.76 E11.44811
G1 X-18.12 Y11.16 E11.49438
G1 X-18.22 Y10.98 E11.50813
G1 X-18.40 Y10.69 E11.53006
G1 X-18.51 Y10.49 E11.54448
G1 X-18.66 Y10.22 E11.56485
G1 X-18.77 Y10.01 E11.57979
G1 X-19.11 Y9.35 E11.62821
G1 X-19.20 Y9.16 E11.64162
G1 X-19.42 Y8.70 E11.67456
G1 X-19.49 Y8.52 E11.68666
G1 X-19.81 Y7.78 E11.73875
G1 X-19.87 Y7.59 E11.75161
G1 X-19.99 Y7.29 E11.77248
G1 X-20.07 Y7.05 E11.78873
G1 X-20.32 Y6.35 E11.83663
G1 X-20.37 Y6.14 E11.85094
G1 X-20.47 Y5.82 E11.87210
G1 X-20.52 Y5.59 E11.88740
G1 X-20.61 Y5.29 E11.90747
G1 X-20.66 Y5.09 E11.92131
G1 X-20.84 Y4.31 E11.97252
G1 X-20.88 Y4.09 E11.98691
G1 X-20.95 Y3.71 E12.01232
G1 X-20.98 Y3.51 E12.02499
G1 X-21.11 Y2.72 E12.07690
G1 X-21.13 Y2.50 E12.09082
G1 X-21.16 Y2.18 E12.11170
G1 X-21.18 Y2.05 E12.12057
G1 X-21.25 Y1.20 E12.17554
G1 X-21.25 Y0.99 E12.18909
G1 X-21.27 Y0.66 E12.21011
G1 X-21.27 Y0.44 E12.22483
G1 X-21.27 Y0.09 E12.24710
G1 X-21.27 Y-0.10 E12.25969
G1 X-21.27 Y-0.45 E12.28196
G1 X-21.27 Y-0.68 E12.29668
G1 X-21.23 Y-1.45 E12.34666
G1 X-21.21 Y-1.66 E12.36039
G1 X-21.17 Y-2.06 E12.38619
G1 X-21.16 Y-2.20 E12.39505
G1 X-21.07 Y-2.96 E12.44469
G1 X-21.04 Y-3.17 E12.45867
G1 X-20.97 Y-3.56 E12.48423
G1 X-20.94 Y-3.79 E12.49909
G1 X-20.78 Y-4.57 E12.55029
G1 X-20.73 Y-4.77 E12.56359
G1 X-20.65 Y-5.10 E12.58536
G1 X-20.60 Y-5.31 E12.59920
G1 X-20.51 Y-5.64 E12.62167
G1 X-20.46 Y-5.84 E12.63458
G1 X-20.23 Y-6.58 E12.68460
G1 X-20.16 Y-6.79 E12.69916
G1 X-20.06 Y-7.07 E12.71839
G1 X-19.99 Y-7.30 E12.73417
G1 X-19.71 Y-8.00 E12.78276
G1 X-19.64 Y-8.19 E12.79564
G1 X-19.43 Y-8.66 E12.82855
G1 X-19.34 Y-8.88 E12.84409
G1 X-19.01 Y-9.55 E12.89261
G1 X-18.91 Y-9.74 E12.90645
G1 X-18.77 Y-10.02 E12.92683
G1 X-18.66 Y-10.23 E12.94177
G1 X-18.50 Y-10.50 E12.96215
G1 X-18.39 Y-10.70 E12.97656
G1 X-18.02 Y-11.31 E13.02306
G1 X-17.90 Y-11.51 E13.03784
G1 X-17.57 Y-11.99 E13.07533
G1 X-17.46 Y-12.15 E13.08817
G1 X-17.06 Y-12.72 E13.13333
G1 X-16.90 Y-12.92 E13.14954
G1 X-16.71 Y-13.16 E13.16939
G1 X-16.58 Y-13.32 E13.18266
G1 X-16.19 Y-13.81 E13.22317
G1 X-16.02 Y-13.99 E13.23908
G1 X-15.59 Y-14.49 E13.28148
G1 X-15.43 Y-14.64 E13.29590
G1 X-15.22 Y-14.87 E13.31549
G1 X-15.06 Y-15.03 E13.33047
G1 X-14.58 Y-15.50 E13.37365
G1 X-14.42 Y-15.64 E13.38764
G1 X-13.95 Y-16.07 E13.42826
G1 X-13.79 Y-16.20 E13.44200
G1 X-13.54 Y-16.41 E13.46334
G1 X-13.37 Y-16.55 E13.47753
G1 X-12.82 Y-16.99 E13.52269
G1 X-12.63 Y-17.11 E13.53711
G1 X-12.37 Y-17.31 E13.55849
G1 X-12.20 Y-17.43 E13.57189
G1 X-11.72 Y-17.76 E13.60951
G1 X-11.53 Y-17.88 E13.62400
G1 X-10.92 Y-18.27 E13.67046
G1 X-10.74 Y-18.36 E13.68349
G1 X-10.46 Y-18.53 E13.70481
G1 X-10.25 Y-18.64 E13.72032
G1 X-9.59 Y-19.00 E13.76876
G1 X-9.39 Y-19.09 E13.78266
G1 X-8.94 Y-19.31 E13.81522
G1 X-8.75 Y-19.39 E13.82851
G1 X-8.44 Y-19.53 E13.85003
G1 X-8.24 Y-19.61 E13.86395
G1 X-7.55 Y-19.90 E13.91256
G1 X-7.33 Y-19.97 E13.92732
G1 X-7.02 Y-20.08 E13.94843
G1 X-6.82 Y-20.15 E13.96258
G1 X-6.08 Y-20.39 E14.01260
G1 X-5.89 Y-20.44 E14.02538
G1 X-5.57 Y-20.54 E14.04691
G1 X-5.35 Y-20.59 E14.06161
G1 X-4.57 Y-20.79 E14.11340
G1 X-4.36 Y-20.82 E14.12688
