;Generated with Cura_SteamEngine 14.03
; automatic settings before start_gcode
G21 ; set units to millimeters
M107 ; fan off
M190 S70 ; wait for bed temperature to be reached
M104 T0 S255 ; start heating extruder 1
T0 ; set the active extruder to 0
; settings from start_gcode
G28
; automatic settings after start_gcode
M109 T0 S255 ; wait for extruder 1 to reach temperature
T0 ; set the active extruder to 0
G90 ; use absolute coordinates
G92 E0 ; reset the expected extruder position
M82 ; use absolute distance for extrusion
;Layer count: 63
;LAYER:0
M107
G0 F12000 X10.25 Y-19.21 Z0.30
G0 X10.25 Y-19.21
;TYPE:SKIRT
G1 Z0.30
G1 F9000 E0.00000
G1 F900 X10.54 Y-19.06 E0.02148
G1 X10.75 Y-18.94 E0.03756
G1 X11.34 Y-18.59 E0.08194
G1 X11.98 Y-18.18 E0.13202
G1 X12.61 Y-17.75 E0.18139
G1 X13.23 Y-17.30 E0.23144
G1 X13.83 Y-16.82 E0.28220
G1 X14.41 Y-16.32 E0.33205
G1 X14.99 Y-15.80 E0.38267
G1 X15.54 Y-15.26 E0.43325
G1 X16.06 Y-14.70 E0.48296
G1 X16.58 Y-14.12 E0.53363
G1 X17.06 Y-13.53 E0.58342
G1 X17.53 Y-12.92 E0.63354
G1 X17.97 Y-12.30 E0.68381
G1 X18.52 Y-11.46 E0.74939
G1 X18.64 Y-11.26 E0.76433
G1 X18.81 Y-10.97 E0.78605
G1 X18.90 Y-10.81 E0.79801
G1 X19.17 Y-10.34 E0.83374
G1 X19.52 Y-9.65 E0.88390
G1 X19.86 Y-8.95 E0.93521
G1 X20.16 Y-8.23 E0.98586
G1 X20.43 Y-7.54 E1.03462
G1 X20.70 Y-6.76 E1.08826
G1 X20.76 Y-6.58 E1.10072
G1 X21.04 Y-5.67 E1.16279
G1 X21.08 Y-5.46 E1.17657
G1 X21.16 Y-5.15 E1.19798
G1 X21.21 Y-4.93 E1.21230
G1 X21.28 Y-4.61 E1.23364
G1 X21.33 Y-4.38 E1.24949
G1 X21.51 Y-3.47 E1.30986
G1 X21.53 Y-3.25 E1.32431
G1 X21.58 Y-2.93 E1.34561
G1 X21.60 Y-2.71 E1.35959
G1 X21.65 Y-2.30 E1.38664
G1 X21.72 Y-1.55 E1.43628
G1 X21.76 Y-0.76 E1.48795
G1 X21.77 Y0.00 E1.53734
G1 X21.76 Y0.76 E1.58672
G1 X21.72 Y1.55 E1.63839
G1 X21.67 Y2.16 E1.67878
G1 X21.65 Y2.38 E1.69283
G1 X21.60 Y2.72 E1.71553
G1 X21.58 Y2.94 E1.72971
G1 X21.43 Y3.85 E1.79011
G1 X21.39 Y4.08 E1.80570
G1 X21.33 Y4.39 E1.82580
G1 X21.28 Y4.62 E1.84166
G1 X21.20 Y4.94 E1.86300
G1 X21.16 Y5.16 E1.87732
G1 X20.92 Y6.03 E1.93629
G1 X20.86 Y6.23 E1.95014
G1 X20.68 Y6.81 E1.98952
G1 X20.43 Y7.54 E2.03996
G1 X20.16 Y8.23 E2.08872
G1 X19.86 Y8.95 E2.13937
G1 X19.52 Y9.65 E2.19067
G1 X19.18 Y10.31 E2.23846
G1 X19.07 Y10.51 E2.25355
G1 X18.89 Y10.82 E2.27724
G1 X18.80 Y10.98 E2.28920
G1 X18.39 Y11.66 E2.34128
G1 X17.97 Y12.30 E2.39074
G1 X17.53 Y12.92 E2.44101
G1 X17.06 Y13.53 E2.49113
G1 X16.58 Y14.12 E2.54093
G1 X16.06 Y14.70 E2.59159
G1 X15.54 Y15.26 E2.64131
G1 X14.99 Y15.80 E2.69188
G1 X14.41 Y16.32 E2.74250
G1 X13.83 Y16.82 E2.79236
G1 X13.23 Y17.30 E2.84311
G1 X12.61 Y17.75 E2.89316
G1 X11.98 Y18.18 E2.94253
G1 X11.21 Y18.67 E3.00213
G1 X11.05 Y18.76 E3.01467
G1 X10.74 Y18.94 E3.03768
G1 X10.53 Y19.06 E3.05376
G1 X9.98 Y19.36 E3.09452
G1 X9.30 Y19.69 E3.14406
G1 X8.61 Y20.00 E3.19314
G1 X7.89 Y20.30 E3.24384
G1 X7.01 Y20.62 E3.30548
G1 X6.83 Y20.68 E3.31788
G1 X5.95 Y20.97 E3.37827
G1 X5.74 Y21.01 E3.39199
G1 X5.43 Y21.10 E3.41351
G1 X5.18 Y21.15 E3.42989
G1 X4.87 Y21.23 E3.45064
G1 X4.66 Y21.27 E3.46450
G1 X3.75 Y21.47 E3.52578
G1 X3.53 Y21.49 E3.53996
G1 X3.21 Y21.55 E3.56146
G1 X2.98 Y21.57 E3.57636
G1 X2.65 Y21.62 E3.59832
G1 X2.41 Y21.64 E3.61394
G1 X1.92 Y21.69 E3.64632
G1 X1.16 Y21.75 E3.69576
G1 X0.39 Y21.77 E3.74634
G1 X-0.39 Y21.77 E3.79690
G1 X-1.16 Y21.75 E3.84748
G1 X-1.89 Y21.69 E3.89496
G1 X-2.10 Y21.67 E3.90887
G1 X-2.42 Y21.64 E3.92996
G1 X-2.66 Y21.61 E3.94557
G1 X-2.99 Y21.57 E3.96754
G1 X-3.22 Y21.55 E3.98244
G1 X-4.13 Y21.38 E4.04283
G1 X-4.34 Y21.34 E4.05723
G1 X-4.67 Y21.27 E4.07907
G1 X-4.88 Y21.22 E4.09320
G1 X-5.19 Y21.15 E4.11395
G1 X-5.44 Y21.10 E4.13034
G1 X-6.30 Y20.84 E4.18930
G1 X-6.51 Y20.78 E4.20321
G1 X-7.17 Y20.56 E4.24861
G1 X-7.89 Y20.30 E4.29925
G1 X-8.61 Y20.00 E4.34995
G1 X-9.30 Y19.69 E4.39903
G1 X-10.06 Y19.32 E4.45439
G1 X-10.25 Y19.21 E4.46854
G1 X-10.54 Y19.06 E4.49002
G1 X-10.75 Y18.94 E4.50610
G1 X-11.34 Y18.59 E4.55048
G1 X-11.98 Y18.18 E4.60056
G1 X-12.61 Y17.75 E4.64993
G1 X-13.23 Y17.30 E4.69998
G1 X-13.83 Y16.82 E4.75074
G1 X-14.41 Y16.32 E4.80059
G1 X-14.99 Y15.80 E4.85121
G1 X-15.54 Y15.26 E4.90178
G1 X-16.06 Y14.70 E4.95150
G1 X-16.58 Y14.12 E5.00216
G1 X-17.06 Y13.53 E5.05196
G1 X-17.53 Y12.92 E5.10208
G1 X-17.97 Y12.30 E5.15235
G1 X-18.52 Y11.46 E5.21793
G1 X-18.64 Y11.26 E5.23287
G1 X-18.81 Y10.97 E5.25459
G1 X-18.90 Y10.81 E5.26655
G1 X-19.17 Y10.34 E5.30228
G1 X-19.52 Y9.65 E5.35244
G1 X-19.86 Y8.95 E5.40375
G1 X-20.16 Y8.23 E5.45440
G1 X-20.43 Y7.54 E5.50316
G1 X-20.70 Y6.76 E5.55680
G1 X-20.76 Y6.58 E5.56926
G1 X-21.04 Y5.67 E5.63133
G1 X-21.08 Y5.46 E5.64511
G1 X-21.16 Y5.15 E5.66652
G1 X-21.21 Y4.93 E5.68084
G1 X-21.28 Y4.61 E5.70218
G1 X-21.33 Y4.38 E5.71803
G1 X-21.51 Y3.47 E5.77840
G1 X-21.53 Y3.25 E5.79284
G1 X-21.58 Y2.93 E5.81415
G1 X-21.60 Y2.71 E5.82813
G1 X-21.65 Y2.30 E5.85518
G1 X-21.72 Y1.55 E5.90482
G1 X-21.76 Y0.76 E5.95649
G1 X-21.77 Y0.00 E6.00587
G1 X-21.76 Y-0.76 E6.05526
G1 X-21.72 Y-1.55 E6.10693
G1 X-21.67 Y-2.16 E6.14732
G1 X-21.65 Y-2.38 E6.16137
G1 X-21.60 Y-2.72 E6.18407
G1 X-21.58 Y-2.94 E6.19825
G1 X-21.43 Y-3.85 E6.25865
G1 X-21.39 Y-4.08 E6.27424
G1 X-21.33 Y-4.39 E6.29434
G1 X-21.28 Y-4.62 E6.31020
G1 X-21.20 Y-4.94 E6.33154
G1 X-21.16 Y-5.16 E6.34586
G1 X-20.92 Y-6.03 E6.40483
G1 X-20.86 Y-6.23 E6.41868
G1 X-20.68 Y-6.81 E6.45805
G1 X-20.43 Y-7.54 E6.50850
G1 X-20.16 Y-8.23 E6.55726
G1 X-19.86 Y-8.95 E6.60791
G1 X-19.52 Y-9.65 E6.65921
G1 X-19.18 Y-10.31 E6.70700
G1 X-19.07 Y-10.51 E6.72209
G1 X-18.89 Y-10.82 E6.74578
G1 X-18.80 Y-10.98 E6.75774
G1 X-18.39 Y-11.66 E6.80982
G1 X-17.97 Y-12.30 E6.85928
G1 X-17.53 Y-12.92 E6.90955
G1 X-17.06 Y-13.53 E6.95967
G1 X-16.58 Y-14.12 E7.00947
G1 X-16.06 Y-14.70 E7.06013
G1 X-15.54 Y-15.26 E7.10985
G1 X-14.99 Y-15.80 E7.16042
G1 X-14.41 Y-16.32 E7.21104
G1 X-13.83 Y-16.82 E7.26090
G1 X-13.23 Y-17.30 E7.31165
G1 X-12.61 Y-17.75 E7.36170
G1 X-11.98 Y-18.18 E7.41107
G1 X-11.21 Y-18.67 E7.47066
G1 X-11.05 Y-18.76 E7.48321
G1 X-10.74 Y-18.94 E7.50622
G1 X-10.53 Y-19.06 E7.52230
G1 X-9.98 Y-19.36 E7.56306
G1 X-9.30 Y-19.69 E7.61260
G1 X-8.61 Y-20.00 E7.66168
G1 X-7.89 Y-20.30 E7.71238
G1 X-7.01 Y-20.62 E7.77402
G1 X-6.83 Y-20.68 E7.78642
G1 X-5.95 Y-20.97 E7.84681
G1 X-5.74 Y-21.01 E7.86053
G1 X-5.43 Y-21.10 E7.88205
G1 X-5.18 Y-21.15 E7.89843
G1 X-4.87 Y-21.23 E7.91918
G1 X-4.66 Y-21.27 E7.93304
G1 X-3.75 Y-21.47 E7.99432
G1 X-3.53 Y-21.49 E8.00850
G1 X-3.21 Y-21.55 E8.02999
G1 X-2.98 Y-21.57 E8.04490
G1 X-2.65 Y-21.62 E8.06686
G1 X-2.41 Y-21.64 E8.08248
G1 X-1.92 Y-21.69 E8.11486
G1 X-1.16 Y-21.75 E8.16430
G1 X-0.39 Y-21.77 E8.21488
G1 X0.39 Y-21.77 E8.26544
G1 X1.16 Y-21.75 E8.31602
G1 X1.89 Y-21.69 E8.36350
G1 X2.10 Y-21.67 E8.37741
G1 X2.42 Y-21.64 E8.39849
G1 X2.66 Y-21.61 E8.41411
G1 X2.99 Y-21.57 E8.43608
G1 X3.22 Y-21.55 E8.45098
G1 X4.13 Y-21.38 E8.51137
G1 X4.34 Y-21.34 E8.52577
G1 X4.67 Y-21.27 E8.54761
G1 X4.88 Y-21.22 E8.56174
G1 X5.19 Y-21.15 E8.58249
G1 X5.44 Y-21.10 E8.59888
G1 X6.30 Y-20.84 E8.65784
G1 X6.51 Y-20.78 E8.67175
G1 X7.17 Y-20.56 E8.71714
G1 X7.89 Y-20.30 E8.76779
G1 X8.61 Y-20.00 E8.81849
G1 X9.30 Y-19.69 E8.86757
G1 X10.06 Y-19.32 E8.92293
G1 X10.25 Y-19.21 E8.93708
G0 F12000 X9.98 Y-18.79
G1 F900 X10.30 Y-18.62 E8.96051
G1 X10.50 Y-18.50 E8.97598
G1 X11.08 Y-18.16 E9.01946
G1 X11.71 Y-17.76 E9.06834
G1 X12.32 Y-17.35 E9.11655
G1 X12.92 Y-16.90 E9.16551
G1 X13.52 Y-16.43 E9.21507
G1 X14.08 Y-15.95 E9.26381
G1 X14.64 Y-15.44 E9.31327
G1 X15.18 Y-14.91 E9.36265
G1 X15.69 Y-14.37 E9.41120
G1 X16.20 Y-13.80 E9.46076
G1 X16.67 Y-13.22 E9.50940
G1 X17.12 Y-12.63 E9.55836
G1 X17.56 Y-12.01 E9.60751
G1 X18.10 Y-11.20 E9.67124
G1 X18.20 Y-11.01 E9.68536
G1 X18.38 Y-10.72 E9.70731
G1 X18.46 Y-10.57 E9.71886
G1 X18.73 Y-10.10 E9.75395
G1 X19.07 Y-9.43 E9.80300
G1 X19.40 Y-8.74 E9.85308
G1 X19.70 Y-8.04 E9.90259
G1 X19.96 Y-7.36 E9.95029
G1 X20.23 Y-6.61 E10.00255
G1 X20.28 Y-6.43 E10.01454
G1 X20.55 Y-5.55 E10.07497
G1 X20.59 Y-5.35 E10.08836
G1 X20.68 Y-5.03 E10.10962
G1 X20.72 Y-4.82 E10.12354
G1 X20.79 Y-4.51 E10.14469
G1 X20.84 Y-4.28 E10.15994
G1 X21.01 Y-3.40 E10.21878
G1 X21.03 Y-3.19 E10.23257
G1 X21.09 Y-2.86 E10.25387
G1 X21.11 Y-2.64 E10.26825
G1 X21.16 Y-2.25 E10.29418
G1 X21.22 Y-1.51 E10.34264
G1 X21.26 Y-0.74 E10.39313
G1 X21.27 Y0.00 E10.44140
G1 X21.26 Y0.74 E10.48968
G1 X21.22 Y1.51 E10.54017
G1 X21.17 Y2.12 E10.57978
G1 X21.15 Y2.32 E10.59330
G1 X21.11 Y2.63 E10.61344
G1 X21.09 Y2.87 E10.62959
G1 X20.94 Y3.76 E10.68840
G1 X20.90 Y3.99 E10.70333
G1 X20.84 Y4.29 E10.72350
G1 X20.79 Y4.52 E10.73874
G1 X20.72 Y4.81 E10.75835
G1 X20.68 Y5.04 E10.77382
G1 X20.44 Y5.89 E10.83122
G1 X20.39 Y6.09 E10.84453
G1 X20.21 Y6.65 E10.88322
G1 X19.96 Y7.36 E10.93243
G1 X19.70 Y8.04 E10.98013
G1 X19.40 Y8.74 E11.02964
G1 X19.07 Y9.43 E11.07972
G1 X18.74 Y10.07 E11.12649
G1 X18.63 Y10.26 E11.14099
G1 X18.46 Y10.58 E11.16453
G1 X18.37 Y10.73 E11.17608
G1 X17.97 Y11.40 E11.22688
G1 X17.56 Y12.01 E11.27519
G1 X17.12 Y12.63 E11.32434
G1 X16.67 Y13.22 E11.37330
G1 X16.20 Y13.80 E11.42194
G1 X15.69 Y14.37 E11.47149
G1 X15.18 Y14.91 E11.52005
G1 X14.64 Y15.44 E11.56942
G1 X14.08 Y15.95 E11.61889
G1 X13.52 Y16.43 E11.66763
G1 X12.92 Y16.90 E11.71718
G1 X12.32 Y17.35 E11.76615
G1 X11.71 Y17.76 E11.81435
G1 X10.96 Y18.24 E11.87243
G1 X10.79 Y18.34 E11.88520
G1 X10.49 Y18.51 E11.90740
G1 X10.29 Y18.62 E11.92286
G1 X9.75 Y18.91 E11.96284
G1 X9.08 Y19.24 E12.01124
G1 X8.41 Y19.54 E12.05918
G1 X7.71 Y19.83 E12.10877
G1 X6.85 Y20.15 E12.16875
G1 X6.66 Y20.20 E12.18150
G1 X5.82 Y20.48 E12.23948
G1 X5.62 Y20.52 E12.25299
G1 X5.31 Y20.61 E12.27418
G1 X5.09 Y20.66 E12.28889
G1 X4.76 Y20.74 E12.31066
G1 X4.51 Y20.79 E12.32717
G1 X3.67 Y20.97 E12.38358
G1 X3.46 Y20.99 E12.39749
G1 X3.14 Y21.05 E12.41873
G1 X2.92 Y21.07 E12.43337
G1 X2.59 Y21.12 E12.45501
G1 X2.33 Y21.15 E12.47175
G1 X1.87 Y21.19 E12.50196
G1 X1.13 Y21.25 E12.55028
G1 X0.38 Y21.27 E12.59969
G1 X-0.38 Y21.27 E12.64907
G1 X-1.13 Y21.25 E12.69848
G1 X-1.84 Y21.20 E12.74497
G1 X-2.05 Y21.18 E12.75829
G1 X-2.34 Y21.14 E12.77767
G1 X-2.60 Y21.12 E12.79441
G1 X-2.92 Y21.07 E12.81604
G1 X-3.15 Y21.05 E12.83069
G1 X-4.03 Y20.89 E12.88949
G1 X-4.24 Y20.85 E12.90327
G1 X-4.53 Y20.79 E12.92272
G1 X-4.77 Y20.74 E12.93871
G1 X-5.09 Y20.66 E12.96047
G1 X-5.32 Y20.61 E12.97519
G1 X-6.16 Y20.36 E13.03264
G1 X-6.36 Y20.30 E13.04595
G1 X-7.00 Y20.09 E13.09038
G1 X-7.71 Y19.83 E13.13985
G1 X-8.41 Y19.54 E13.18943
G1 X-9.08 Y19.24 E13.23737
G1 X-9.82 Y18.87 E13.29138
G1 X-9.98 Y18.79 E13.30299
G1 X-10.30 Y18.62 E13.32643
G1 X-10.50 Y18.50 E13.34189
G1 X-11.08 Y18.16 E13.38537
G1 X-11.71 Y17.76 E13.43426
G1 X-12.32 Y17.35 E13.48246
G1 X-12.92 Y16.90 E13.53143
G1 X-13.52 Y16.43 E13.58098
G1 X-14.08 Y15.95 E13.62972
G1 X-14.64 Y15.44 E13.67919
G1 X-15.18 Y14.91 E13.72856
G1 X-15.69 Y14.37 E13.77712
G1 X-16.20 Y13.80 E13.82667
G1 X-16.67 Y13.22 E13.87531
G1 X-17.12 Y12.63 E13.92427
G1 X-17.56 Y12.01 E13.97342
G1 X-18.10 Y11.20 E14.03715
G1 X-18.20 Y11.01 E14.05127
G1 X-18.38 Y10.72 E14.07323
G1 X-18.50 Y10.51 E14.08933
G1 X-18.73 Y10.10 E14.11987
G1 X-19.07 Y9.43 E14.16891
G1 X-19.40 Y8.74 E14.21899
G1 X-19.70 Y8.04 E14.26850
G1 X-19.96 Y7.36 E14.31621
G1 X-20.23 Y6.61 E14.36847
G1 X-20.28 Y6.43 E14.38045
G1 X-20.55 Y5.55 E14.44088
G1 X-20.59 Y5.35 E14.45427
G1 X-20.68 Y5.03 E14.47553
G1 X-20.72 Y4.81 E14.49033
G1 X-20.79 Y4.51 E14.51061
G1 X-20.84 Y4.28 E14.52585
G1 X-21.01 Y3.40 E14.58469
G1 X-21.03 Y3.19 E14.59848
G1 X-21.09 Y2.86 E14.61978
G1 X-21.11 Y2.62 E14.63560
G1 X-21.16 Y2.25 E14.66009
G1 X-21.22 Y1.51 E14.70855
G1 X-21.26 Y0.74 E14.75904
G1 X-21.27 Y0.00 E14.80732
G1 X-21.26 Y-0.74 E14.85559
G1 X-21.22 Y-1.51 E14.90608
G1 X-21.17 Y-2.12 E14.94569
G1 X-21.15 Y-2.32 E14.95922
G1 X-21.11 Y-2.64 E14.98047
G1 X-21.09 Y-2.87 E14.99551
G1 X-20.94 Y-3.76 E15.05432
G1 X-20.90 Y-3.99 E15.06924
G1 X-20.84 Y-4.29 E15.08941
G1 X-20.79 Y-4.52 E15.10466
G1 X-20.72 Y-4.83 E15.12581
G1 X-20.68 Y-5.04 E15.13973
G1 X-20.44 Y-5.89 E15.19713
G1 X-20.39 Y-6.09 E15.21044
G1 X-20.21 Y-6.65 E15.24914
G1 X-19.96 Y-7.36 E15.29834
G1 X-19.70 Y-8.04 E15.34604
G1 X-19.40 Y-8.74 E15.39555
G1 X-19.07 Y-9.43 E15.44563
G1 X-18.74 Y-10.07 E15.49240
G1 X-18.63 Y-10.26 E15.50690
G1 X-18.46 Y-10.58 E15.53045
G1 X-18.37 Y-10.73 E15.54199
G1 X-17.97 Y-11.40 E15.59279
G1 X-17.56 Y-12.01 E15.64110
G1 X-17.12 Y-12.63 E15.69025
G1 X-16.67 Y-13.22 E15.73921
G1 X-16.20 Y-13.80 E15.78785
G1 X-15.69 Y-14.37 E15.83741
G1 X-15.18 Y-14.91 E15.88596
G1 X-14.64 Y-15.44 E15.93534
G1 X-14.08 Y-15.95 E15.98480
G1 X-13.52 Y-16.43 E16.03354
G1 X-12.92 Y-16.90 E16.08310
G1 X-12.32 Y-17.35 E16.13206
G1 X-11.71 Y-17.76 E16.18027
G1 X-10.96 Y-18.24 E16.23834
G1 X-10.79 Y-18.34 E16.25112
G1 X-10.49 Y-18.51 E16.27331
G1 X-10.29 Y-18.62 E16.28878
G1 X-9.75 Y-18.91 E16.32875
G1 X-9.08 Y-19.24 E16.37715
G1 X-8.41 Y-19.54 E16.42510
G1 X-7.71 Y-19.83 E16.47468
G1 X-6.85 Y-20.15 E16.53467
G1 X-6.66 Y-20.20 E16.54742
G1 X-5.82 Y-20.48 E16.60539
G1 X-5.62 Y-20.52 E16.61891
G1 X-5.31 Y-20.61 E16.64009
G1 X-5.09 Y-20.66 E16.65481
G1 X-4.76 Y-20.74 E16.67657
G1 X-4.51 Y-20.79 E16.69308
G1 X-3.67 Y-20.97 E16.74949
G1 X-3.46 Y-20.99 E16.76341
G1 X-3.14 Y-21.05 E16.78465
G1 X-2.92 Y-21.07 E16.79929
G1 X-2.59 Y-21.12 E16.82092
G1 X-2.33 Y-21.15 E16.83766
G1 X-1.87 Y-21.19 E16.86787
G1 X-1.13 Y-21.25 E16.91620
G1 X-0.38 Y-21.27 E16.96561
G1 X0.38 Y-21.27 E17.01498
G1 X1.13 Y-21.25 E17.06439
G1 X1.84 Y-21.20 E17.11089
G1 X2.05 Y-21.18 E17.12421
G1 X2.34 Y-21.14 E17.14358
G1 X2.60 Y-21.12 E17.16032
G1 X2.92 Y-21.07 E17.18196
G1 X3.15 Y-21.05 E17.19660
G1 X4.03 Y-20.89 E17.25540
G1 X4.24 Y-20.85 E17.26919
G1 X4.53 Y-20.79 E17.28863
G1 X4.77 Y-20.74 E17.30462
G1 X5.09 Y-20.66 E17.32639
G1 X5.32 Y-20.61 E17.34110
G1 X6.16 Y-20.36 E17.39856
G1 X6.36 Y-20.30 E17.41187
G1 X7.00 Y-20.09 E17.45629
G1 X7.71 Y-19.83 E17.50576
G1 X8.41 Y-19.54 E17.55535
G1 X9.08 Y-19.24 E17.60329
G1 X9.82 Y-18.87 E17.65730
G1 X9.98 Y-18.79 E17.66891
G0 F12000 X9.77 Y-18.33
G1 F900 X10.06 Y-18.18 E17.69038
G1 X10.26 Y-18.07 E17.70518
G1 X10.82 Y-17.74 E17.74769
G1 X11.43 Y-17.35 E17.79545
G1 X12.03 Y-16.94 E17.84257
G1 X12.62 Y-16.51 E17.89032
G1 X13.20 Y-16.05 E17.93876
G1 X13.75 Y-15.57 E17.98630
G1 X14.30 Y-15.07 E18.03456
G1 X14.82 Y-14.56 E18.08287
G1 X15.32 Y-14.03 E18.13032
G1 X15.82 Y-13.47 E18.17863
G1 X16.28 Y-12.91 E18.22615
G1 X16.72 Y-12.33 E18.27394
G1 X17.15 Y-11.73 E18.32193
G1 X17.67 Y-10.94 E18.38392
G1 X17.77 Y-10.76 E18.39699
G1 X17.95 Y-10.47 E18.41941
G1 X18.03 Y-10.32 E18.43046
G1 X18.29 Y-9.86 E18.46500
G1 X18.62 Y-9.21 E18.51288
G1 X18.94 Y-8.53 E18.56179
G1 X19.23 Y-7.85 E18.61010
G1 X19.49 Y-7.19 E18.65668
G1 X19.75 Y-6.45 E18.70769
G1 X19.80 Y-6.28 E18.71922
G1 X20.07 Y-5.42 E18.77799
G1 X20.11 Y-5.23 E18.79085
G1 X20.19 Y-4.92 E18.81204
G1 X20.23 Y-4.72 E18.82529
G1 X20.31 Y-4.40 E18.84657
G1 X20.35 Y-4.18 E18.86116
G1 X20.52 Y-3.32 E18.91840
G1 X20.54 Y-3.12 E18.93173
G1 X20.59 Y-2.80 E18.95297
G1 X20.61 Y-2.58 E18.96754
G1 X20.66 Y-2.20 E18.99248
G1 X20.72 Y-1.48 E19.03983
G1 X20.77 Y-0.72 E19.08908
G1 X20.77 Y0.00 E19.13625
G1 X20.77 Y0.72 E19.18341
G1 X20.72 Y1.48 E19.23266
G1 X20.67 Y2.07 E19.27148
G1 X20.65 Y2.27 E19.28448
G1 X20.61 Y2.59 E19.30574
G1 X20.59 Y2.81 E19.32018
G1 X20.45 Y3.67 E19.37740
G1 X20.41 Y3.89 E19.39172
G1 X20.35 Y4.19 E19.41196
G1 X20.30 Y4.41 E19.42655
G1 X20.23 Y4.73 E19.44783
G1 X20.19 Y4.93 E19.46108
G1 X19.96 Y5.75 E19.51694
G1 X19.91 Y5.94 E19.52969
G1 X19.73 Y6.49 E19.56764
G1 X19.49 Y7.19 E19.61572
G1 X19.23 Y7.85 E19.66231
G1 X18.94 Y8.53 E19.71062
G1 X18.62 Y9.21 E19.75953
G1 X18.30 Y9.83 E19.80519
G1 X18.20 Y10.02 E19.81917
G1 X18.02 Y10.33 E19.84262
G1 X17.94 Y10.48 E19.85367
G1 X17.55 Y11.13 E19.90324
G1 X17.15 Y11.73 E19.95046
G1 X16.72 Y12.33 E19.99845
G1 X16.28 Y12.91 E20.04624
G1 X15.82 Y13.47 E20.09376
G1 X15.32 Y14.03 E20.14207
G1 X14.82 Y14.56 E20.18952
G1 X14.30 Y15.07 E20.23783
G1 X13.75 Y15.57 E20.28609
G1 X13.20 Y16.05 E20.33363
G1 X12.62 Y16.51 E20.38207
G1 X12.03 Y16.94 E20.42982
G1 X11.43 Y17.35 E20.47694
G1 X10.70 Y17.81 E20.53345
G1 X10.53 Y17.91 E20.54638
